(Generated by PartKam Version 0.05)

G20 G90 G40

(profile 1)
G0 Z0.5
T0 M6
G17
M3
G0 X9.3247 Y15.4283
G1 Z-0.1 F30
G3 X9.2822 Y15.4567 I-0.0926 J-0.0926 F10
G3 X9.2321 Y15.4667 I-0.0501 J-0.1209
G3 X9.182 Y15.4567 I0 J-0.1309
G3 X9.1395 Y15.4283 I0.0501 J-0.1209
G3 X9.1112 Y15.3858 I0.0926 J-0.0926
G3 X9.1012 Y15.3357 I0.1209 J-0.0501
G3 X9.1112 Y15.2857 I0.1309 J0
G3 X9.1395 Y15.2432 I0.1209 J0.0501
G3 X9.182 Y15.2148 I0.0926 J0.0926
G3 X9.2321 Y15.2048 I0.0501 J0.1209
G3 X9.2822 Y15.2148 I0 J0.1309
G3 X9.3247 Y15.2432 I-0.0501 J0.1209
G3 X9.353 Y15.2857 I-0.0926 J0.0926
G3 X9.363 Y15.3357 I-0.1209 J0.0501
G3 X9.353 Y15.3858 I-0.1309 J0
G3 X9.3247 Y15.4283 I-0.1209 J-0.0501
G1 Z-0.2 F30
G3 X9.2822 Y15.4567 I-0.0926 J-0.0926 F10
G3 X9.2321 Y15.4667 I-0.0501 J-0.1209
G3 X9.182 Y15.4567 I0 J-0.1309
G3 X9.1395 Y15.4283 I0.0501 J-0.1209
G3 X9.1112 Y15.3858 I0.0926 J-0.0926
G3 X9.1012 Y15.3357 I0.1209 J-0.0501
G3 X9.1112 Y15.2857 I0.1309 J0
G3 X9.1395 Y15.2432 I0.1209 J0.0501
G3 X9.182 Y15.2148 I0.0926 J0.0926
G3 X9.2321 Y15.2048 I0.0501 J0.1209
G3 X9.2822 Y15.2148 I0 J0.1309
G3 X9.3247 Y15.2432 I-0.0501 J0.1209
G3 X9.353 Y15.2857 I-0.0926 J0.0926
G3 X9.363 Y15.3357 I-0.1209 J0.0501
G3 X9.353 Y15.3858 I-0.1309 J0
G3 X9.3247 Y15.4283 I-0.1209 J-0.0501
G1 Z-0.3 F30
G3 X9.2822 Y15.4567 I-0.0926 J-0.0926 F10
G3 X9.2321 Y15.4667 I-0.0501 J-0.1209
G3 X9.182 Y15.4567 I0 J-0.1309
G3 X9.1395 Y15.4283 I0.0501 J-0.1209
G3 X9.1112 Y15.3858 I0.0926 J-0.0926
G3 X9.1012 Y15.3357 I0.1209 J-0.0501
G3 X9.1112 Y15.2857 I0.1309 J0
G3 X9.1395 Y15.2432 I0.1209 J0.0501
G3 X9.182 Y15.2148 I0.0926 J0.0926
G3 X9.2321 Y15.2048 I0.0501 J0.1209
G3 X9.2822 Y15.2148 I0 J0.1309
G3 X9.3247 Y15.2432 I-0.0501 J0.1209
G3 X9.353 Y15.2857 I-0.0926 J0.0926
G3 X9.363 Y15.3357 I-0.1209 J0.0501
G3 X9.353 Y15.3858 I-0.1309 J0
G3 X9.3247 Y15.4283 I-0.1209 J-0.0501
G1 Z-0.4 F30
G3 X9.2822 Y15.4567 I-0.0926 J-0.0926 F10
G3 X9.2321 Y15.4667 I-0.0501 J-0.1209
G3 X9.182 Y15.4567 I0 J-0.1309
G3 X9.1395 Y15.4283 I0.0501 J-0.1209
G3 X9.1112 Y15.3858 I0.0926 J-0.0926
G3 X9.1012 Y15.3357 I0.1209 J-0.0501
G3 X9.1112 Y15.2857 I0.1309 J0
G3 X9.1395 Y15.2432 I0.1209 J0.0501
G3 X9.182 Y15.2148 I0.0926 J0.0926
G3 X9.2321 Y15.2048 I0.0501 J0.1209
G3 X9.2822 Y15.2148 I0 J0.1309
G3 X9.3247 Y15.2432 I-0.0501 J0.1209
G3 X9.353 Y15.2857 I-0.0926 J0.0926
G3 X9.363 Y15.3357 I-0.1209 J0.0501
G3 X9.353 Y15.3858 I-0.1309 J0
G3 X9.3247 Y15.4283 I-0.1209 J-0.0501
G1 Z-0.5 F30
G3 X9.2822 Y15.4567 I-0.0926 J-0.0926 F10
G3 X9.2321 Y15.4667 I-0.0501 J-0.1209
G3 X9.182 Y15.4567 I0 J-0.1309
G3 X9.1395 Y15.4283 I0.0501 J-0.1209
G3 X9.1112 Y15.3858 I0.0926 J-0.0926
G3 X9.1012 Y15.3357 I0.1209 J-0.0501
G3 X9.1112 Y15.2857 I0.1309 J0
G3 X9.1395 Y15.2432 I0.1209 J0.0501
G3 X9.182 Y15.2148 I0.0926 J0.0926
G3 X9.2321 Y15.2048 I0.0501 J0.1209
G3 X9.2822 Y15.2148 I0 J0.1309
G3 X9.3247 Y15.2432 I-0.0501 J0.1209
G3 X9.353 Y15.2857 I-0.0926 J0.0926
G3 X9.363 Y15.3357 I-0.1209 J0.0501
G3 X9.353 Y15.3858 I-0.1309 J0
G3 X9.3247 Y15.4283 I-0.1209 J-0.0501
G1 Z-0.6 F30
G3 X9.2822 Y15.4567 I-0.0926 J-0.0926 F10
G3 X9.2321 Y15.4667 I-0.0501 J-0.1209
G3 X9.182 Y15.4567 I0 J-0.1309
G3 X9.1395 Y15.4283 I0.0501 J-0.1209
G3 X9.1112 Y15.3858 I0.0926 J-0.0926
G3 X9.1012 Y15.3357 I0.1209 J-0.0501
G3 X9.1112 Y15.2857 I0.1309 J0
G3 X9.1395 Y15.2432 I0.1209 J0.0501
G3 X9.182 Y15.2148 I0.0926 J0.0926
G3 X9.2321 Y15.2048 I0.0501 J0.1209
G3 X9.2822 Y15.2148 I0 J0.1309
G3 X9.3247 Y15.2432 I-0.0501 J0.1209
G3 X9.353 Y15.2857 I-0.0926 J0.0926
G3 X9.363 Y15.3357 I-0.1209 J0.0501
G3 X9.353 Y15.3858 I-0.1309 J0
G3 X9.3247 Y15.4283 I-0.1209 J-0.0501
G1 Z-0.7 F30
G3 X9.2822 Y15.4567 I-0.0926 J-0.0926 F10
G3 X9.2321 Y15.4667 I-0.0501 J-0.1209
G3 X9.182 Y15.4567 I0 J-0.1309
G3 X9.1395 Y15.4283 I0.0501 J-0.1209
G3 X9.1112 Y15.3858 I0.0926 J-0.0926
G3 X9.1012 Y15.3357 I0.1209 J-0.0501
G3 X9.1112 Y15.2857 I0.1309 J0
G3 X9.1395 Y15.2432 I0.1209 J0.0501
G3 X9.182 Y15.2148 I0.0926 J0.0926
G3 X9.2321 Y15.2048 I0.0501 J0.1209
G3 X9.2822 Y15.2148 I0 J0.1309
G3 X9.3247 Y15.2432 I-0.0501 J0.1209
G3 X9.353 Y15.2857 I-0.0926 J0.0926
G3 X9.363 Y15.3357 I-0.1209 J0.0501
G3 X9.353 Y15.3858 I-0.1309 J0
G3 X9.3247 Y15.4283 I-0.1209 J-0.0501
G1 Z-0.8 F30
G3 X9.2822 Y15.4567 I-0.0926 J-0.0926 F10
G3 X9.2321 Y15.4667 I-0.0501 J-0.1209
G3 X9.182 Y15.4567 I0 J-0.1309
G3 X9.1395 Y15.4283 I0.0501 J-0.1209
G3 X9.1112 Y15.3858 I0.0926 J-0.0926
G3 X9.1012 Y15.3357 I0.1209 J-0.0501
G3 X9.1112 Y15.2857 I0.1309 J0
G3 X9.1395 Y15.2432 I0.1209 J0.0501
G3 X9.182 Y15.2148 I0.0926 J0.0926
G3 X9.2321 Y15.2048 I0.0501 J0.1209
G3 X9.2822 Y15.2148 I0 J0.1309
G3 X9.3247 Y15.2432 I-0.0501 J0.1209
G3 X9.353 Y15.2857 I-0.0926 J0.0926
G3 X9.363 Y15.3357 I-0.1209 J0.0501
G3 X9.353 Y15.3858 I-0.1309 J0
G3 X9.3247 Y15.4283 I-0.1209 J-0.0501
G0 Z0.5
G0 X14.8899 Y6.7934
G1 Z-0.1 F30
G3 X14.8713 Y6.7569 I0.1059 J-0.0769 F10
G3 X14.8649 Y6.7165 I0.1245 J-0.0405
G1 X14.8649 Y6.7165
G1 X14.8649 Y6.7165
G3 X14.8713 Y6.676 I0.1309 J0
G3 X14.8899 Y6.6395 I0.1245 J0.0405
G3 X14.9189 Y6.6106 I0.1059 J0.0769
G3 X14.9554 Y6.592 I0.0769 J0.1059
G3 X14.9958 Y6.5856 I0.0405 J0.1245
G3 X15.0363 Y6.592 I0 J0.1309
G3 X15.0728 Y6.6106 I-0.0405 J0.1245
G3 X15.1017 Y6.6395 I-0.0769 J0.1059
G3 X15.1203 Y6.676 I-0.1059 J0.0769
G3 X15.1267 Y6.7165 I-0.1245 J0.0405
G1 X15.1267 Y6.7165
G1 X15.1267 Y6.7165
G3 X15.1203 Y6.7569 I-0.1309 J0
G3 X15.1017 Y6.7934 I-0.1245 J-0.0405
G3 X15.0728 Y6.8224 I-0.1059 J-0.0769
G3 X15.0363 Y6.841 I-0.0769 J-0.1059
G3 X14.9958 Y6.8474 I-0.0405 J-0.1245
G3 X14.9554 Y6.841 I0 J-0.1309
G3 X14.9189 Y6.8224 I0.0405 J-0.1245
G3 X14.8899 Y6.7934 I0.0769 J-0.1059
G1 Z-0.2 F30
G3 X14.8713 Y6.7569 I0.1059 J-0.0769 F10
G3 X14.8649 Y6.7165 I0.1245 J-0.0405
G1 X14.8649 Y6.7165
G1 X14.8649 Y6.7165
G3 X14.8713 Y6.676 I0.1309 J0
G3 X14.8899 Y6.6395 I0.1245 J0.0405
G3 X14.9189 Y6.6106 I0.1059 J0.0769
G3 X14.9554 Y6.592 I0.0769 J0.1059
G3 X14.9958 Y6.5856 I0.0405 J0.1245
G3 X15.0363 Y6.592 I0 J0.1309
G3 X15.0728 Y6.6106 I-0.0405 J0.1245
G3 X15.1017 Y6.6395 I-0.0769 J0.1059
G3 X15.1203 Y6.676 I-0.1059 J0.0769
G3 X15.1267 Y6.7165 I-0.1245 J0.0405
G1 X15.1267 Y6.7165
G1 X15.1267 Y6.7165
G3 X15.1203 Y6.7569 I-0.1309 J0
G3 X15.1017 Y6.7934 I-0.1245 J-0.0405
G3 X15.0728 Y6.8224 I-0.1059 J-0.0769
G3 X15.0363 Y6.841 I-0.0769 J-0.1059
G3 X14.9958 Y6.8474 I-0.0405 J-0.1245
G3 X14.9554 Y6.841 I0 J-0.1309
G3 X14.9189 Y6.8224 I0.0405 J-0.1245
G3 X14.8899 Y6.7934 I0.0769 J-0.1059
G1 Z-0.3 F30
G3 X14.8713 Y6.7569 I0.1059 J-0.0769 F10
G3 X14.8649 Y6.7165 I0.1245 J-0.0405
G1 X14.8649 Y6.7165
G1 X14.8649 Y6.7165
G3 X14.8713 Y6.676 I0.1309 J0
G3 X14.8899 Y6.6395 I0.1245 J0.0405
G3 X14.9189 Y6.6106 I0.1059 J0.0769
G3 X14.9554 Y6.592 I0.0769 J0.1059
G3 X14.9958 Y6.5856 I0.0405 J0.1245
G3 X15.0363 Y6.592 I0 J0.1309
G3 X15.0728 Y6.6106 I-0.0405 J0.1245
G3 X15.1017 Y6.6395 I-0.0769 J0.1059
G3 X15.1203 Y6.676 I-0.1059 J0.0769
G3 X15.1267 Y6.7165 I-0.1245 J0.0405
G1 X15.1267 Y6.7165
G1 X15.1267 Y6.7165
G3 X15.1203 Y6.7569 I-0.1309 J0
G3 X15.1017 Y6.7934 I-0.1245 J-0.0405
G3 X15.0728 Y6.8224 I-0.1059 J-0.0769
G3 X15.0363 Y6.841 I-0.0769 J-0.1059
G3 X14.9958 Y6.8474 I-0.0405 J-0.1245
G3 X14.9554 Y6.841 I0 J-0.1309
G3 X14.9189 Y6.8224 I0.0405 J-0.1245
G3 X14.8899 Y6.7934 I0.0769 J-0.1059
G1 Z-0.4 F30
G3 X14.8713 Y6.7569 I0.1059 J-0.0769 F10
G3 X14.8649 Y6.7165 I0.1245 J-0.0405
G1 X14.8649 Y6.7165
G1 X14.8649 Y6.7165
G3 X14.8713 Y6.676 I0.1309 J0
G3 X14.8899 Y6.6395 I0.1245 J0.0405
G3 X14.9189 Y6.6106 I0.1059 J0.0769
G3 X14.9554 Y6.592 I0.0769 J0.1059
G3 X14.9958 Y6.5856 I0.0405 J0.1245
G3 X15.0363 Y6.592 I0 J0.1309
G3 X15.0728 Y6.6106 I-0.0405 J0.1245
G3 X15.1017 Y6.6395 I-0.0769 J0.1059
G3 X15.1203 Y6.676 I-0.1059 J0.0769
G3 X15.1267 Y6.7165 I-0.1245 J0.0405
G1 X15.1267 Y6.7165
G1 X15.1267 Y6.7165
G3 X15.1203 Y6.7569 I-0.1309 J0
G3 X15.1017 Y6.7934 I-0.1245 J-0.0405
G3 X15.0728 Y6.8224 I-0.1059 J-0.0769
G3 X15.0363 Y6.841 I-0.0769 J-0.1059
G3 X14.9958 Y6.8474 I-0.0405 J-0.1245
G3 X14.9554 Y6.841 I0 J-0.1309
G3 X14.9189 Y6.8224 I0.0405 J-0.1245
G3 X14.8899 Y6.7934 I0.0769 J-0.1059
G1 Z-0.5 F30
G3 X14.8713 Y6.7569 I0.1059 J-0.0769 F10
G3 X14.8649 Y6.7165 I0.1245 J-0.0405
G1 X14.8649 Y6.7165
G1 X14.8649 Y6.7165
G3 X14.8713 Y6.676 I0.1309 J0
G3 X14.8899 Y6.6395 I0.1245 J0.0405
G3 X14.9189 Y6.6106 I0.1059 J0.0769
G3 X14.9554 Y6.592 I0.0769 J0.1059
G3 X14.9958 Y6.5856 I0.0405 J0.1245
G3 X15.0363 Y6.592 I0 J0.1309
G3 X15.0728 Y6.6106 I-0.0405 J0.1245
G3 X15.1017 Y6.6395 I-0.0769 J0.1059
G3 X15.1203 Y6.676 I-0.1059 J0.0769
G3 X15.1267 Y6.7165 I-0.1245 J0.0405
G1 X15.1267 Y6.7165
G1 X15.1267 Y6.7165
G3 X15.1203 Y6.7569 I-0.1309 J0
G3 X15.1017 Y6.7934 I-0.1245 J-0.0405
G3 X15.0728 Y6.8224 I-0.1059 J-0.0769
G3 X15.0363 Y6.841 I-0.0769 J-0.1059
G3 X14.9958 Y6.8474 I-0.0405 J-0.1245
G3 X14.9554 Y6.841 I0 J-0.1309
G3 X14.9189 Y6.8224 I0.0405 J-0.1245
G3 X14.8899 Y6.7934 I0.0769 J-0.1059
G1 Z-0.6 F30
G3 X14.8713 Y6.7569 I0.1059 J-0.0769 F10
G3 X14.8649 Y6.7165 I0.1245 J-0.0405
G1 X14.8649 Y6.7165
G1 X14.8649 Y6.7165
G3 X14.8713 Y6.676 I0.1309 J0
G3 X14.8899 Y6.6395 I0.1245 J0.0405
G3 X14.9189 Y6.6106 I0.1059 J0.0769
G3 X14.9554 Y6.592 I0.0769 J0.1059
G3 X14.9958 Y6.5856 I0.0405 J0.1245
G3 X15.0363 Y6.592 I0 J0.1309
G3 X15.0728 Y6.6106 I-0.0405 J0.1245
G3 X15.1017 Y6.6395 I-0.0769 J0.1059
G3 X15.1203 Y6.676 I-0.1059 J0.0769
G3 X15.1267 Y6.7165 I-0.1245 J0.0405
G1 X15.1267 Y6.7165
G1 X15.1267 Y6.7165
G3 X15.1203 Y6.7569 I-0.1309 J0
G3 X15.1017 Y6.7934 I-0.1245 J-0.0405
G3 X15.0728 Y6.8224 I-0.1059 J-0.0769
G3 X15.0363 Y6.841 I-0.0769 J-0.1059
G3 X14.9958 Y6.8474 I-0.0405 J-0.1245
G3 X14.9554 Y6.841 I0 J-0.1309
G3 X14.9189 Y6.8224 I0.0405 J-0.1245
G3 X14.8899 Y6.7934 I0.0769 J-0.1059
G1 Z-0.7 F30
G3 X14.8713 Y6.7569 I0.1059 J-0.0769 F10
G3 X14.8649 Y6.7165 I0.1245 J-0.0405
G1 X14.8649 Y6.7165
G1 X14.8649 Y6.7165
G3 X14.8713 Y6.676 I0.1309 J0
G3 X14.8899 Y6.6395 I0.1245 J0.0405
G3 X14.9189 Y6.6106 I0.1059 J0.0769
G3 X14.9554 Y6.592 I0.0769 J0.1059
G3 X14.9958 Y6.5856 I0.0405 J0.1245
G3 X15.0363 Y6.592 I0 J0.1309
G3 X15.0728 Y6.6106 I-0.0405 J0.1245
G3 X15.1017 Y6.6395 I-0.0769 J0.1059
G3 X15.1203 Y6.676 I-0.1059 J0.0769
G3 X15.1267 Y6.7165 I-0.1245 J0.0405
G1 X15.1267 Y6.7165
G1 X15.1267 Y6.7165
G3 X15.1203 Y6.7569 I-0.1309 J0
G3 X15.1017 Y6.7934 I-0.1245 J-0.0405
G3 X15.0728 Y6.8224 I-0.1059 J-0.0769
G3 X15.0363 Y6.841 I-0.0769 J-0.1059
G3 X14.9958 Y6.8474 I-0.0405 J-0.1245
G3 X14.9554 Y6.841 I0 J-0.1309
G3 X14.9189 Y6.8224 I0.0405 J-0.1245
G3 X14.8899 Y6.7934 I0.0769 J-0.1059
G1 Z-0.8 F30
G3 X14.8713 Y6.7569 I0.1059 J-0.0769 F10
G3 X14.8649 Y6.7165 I0.1245 J-0.0405
G1 X14.8649 Y6.7165
G1 X14.8649 Y6.7165
G3 X14.8713 Y6.676 I0.1309 J0
G3 X14.8899 Y6.6395 I0.1245 J0.0405
G3 X14.9189 Y6.6106 I0.1059 J0.0769
G3 X14.9554 Y6.592 I0.0769 J0.1059
G3 X14.9958 Y6.5856 I0.0405 J0.1245
G3 X15.0363 Y6.592 I0 J0.1309
G3 X15.0728 Y6.6106 I-0.0405 J0.1245
G3 X15.1017 Y6.6395 I-0.0769 J0.1059
G3 X15.1203 Y6.676 I-0.1059 J0.0769
G3 X15.1267 Y6.7165 I-0.1245 J0.0405
G1 X15.1267 Y6.7165
G1 X15.1267 Y6.7165
G3 X15.1203 Y6.7569 I-0.1309 J0
G3 X15.1017 Y6.7934 I-0.1245 J-0.0405
G3 X15.0728 Y6.8224 I-0.1059 J-0.0769
G3 X15.0363 Y6.841 I-0.0769 J-0.1059
G3 X14.9958 Y6.8474 I-0.0405 J-0.1245
G3 X14.9554 Y6.841 I0 J-0.1309
G3 X14.9189 Y6.8224 I0.0405 J-0.1245
G3 X14.8899 Y6.7934 I0.0769 J-0.1059
G0 Z0.5
G0 X3.5929 Y6.7569
G1 Z-0.1 F30
G3 X3.5743 Y6.7934 I-0.1245 J-0.0405 F10
G3 X3.5453 Y6.8224 I-0.1059 J-0.0769
G3 X3.5088 Y6.841 I-0.0769 J-0.1059
G3 X3.4684 Y6.8474 I-0.0405 J-0.1245
G3 X3.4279 Y6.841 I0 J-0.1309
G3 X3.3914 Y6.8224 I0.0405 J-0.1245
G3 X3.3625 Y6.7934 I0.0769 J-0.1059
G3 X3.3439 Y6.7569 I0.1059 J-0.0769
G3 X3.3375 Y6.7165 I0.1245 J-0.0405
G1 X3.3375 Y6.7165
G1 X3.3375 Y6.7165
G3 X3.3439 Y6.676 I0.1309 J0
G3 X3.3625 Y6.6395 I0.1245 J0.0405
G3 X3.3914 Y6.6106 I0.1059 J0.0769
G3 X3.4279 Y6.592 I0.0769 J0.1059
G3 X3.4684 Y6.5856 I0.0405 J0.1245
G3 X3.5088 Y6.592 I0 J0.1309
G3 X3.5453 Y6.6106 I-0.0405 J0.1245
G3 X3.5743 Y6.6395 I-0.0769 J0.1059
G3 X3.5929 Y6.676 I-0.1059 J0.0769
G3 X3.5993 Y6.7165 I-0.1245 J0.0405
G1 X3.5993 Y6.7165
G1 X3.5993 Y6.7165
G3 X3.5929 Y6.7569 I-0.1309 J0
G1 Z-0.2 F30
G3 X3.5743 Y6.7934 I-0.1245 J-0.0405 F10
G3 X3.5453 Y6.8224 I-0.1059 J-0.0769
G3 X3.5088 Y6.841 I-0.0769 J-0.1059
G3 X3.4684 Y6.8474 I-0.0405 J-0.1245
G3 X3.4279 Y6.841 I0 J-0.1309
G3 X3.3914 Y6.8224 I0.0405 J-0.1245
G3 X3.3625 Y6.7934 I0.0769 J-0.1059
G3 X3.3439 Y6.7569 I0.1059 J-0.0769
G3 X3.3375 Y6.7165 I0.1245 J-0.0405
G1 X3.3375 Y6.7165
G1 X3.3375 Y6.7165
G3 X3.3439 Y6.676 I0.1309 J0
G3 X3.3625 Y6.6395 I0.1245 J0.0405
G3 X3.3914 Y6.6106 I0.1059 J0.0769
G3 X3.4279 Y6.592 I0.0769 J0.1059
G3 X3.4684 Y6.5856 I0.0405 J0.1245
G3 X3.5088 Y6.592 I0 J0.1309
G3 X3.5453 Y6.6106 I-0.0405 J0.1245
G3 X3.5743 Y6.6395 I-0.0769 J0.1059
G3 X3.5929 Y6.676 I-0.1059 J0.0769
G3 X3.5993 Y6.7165 I-0.1245 J0.0405
G1 X3.5993 Y6.7165
G1 X3.5993 Y6.7165
G3 X3.5929 Y6.7569 I-0.1309 J0
G1 Z-0.3 F30
G3 X3.5743 Y6.7934 I-0.1245 J-0.0405 F10
G3 X3.5453 Y6.8224 I-0.1059 J-0.0769
G3 X3.5088 Y6.841 I-0.0769 J-0.1059
G3 X3.4684 Y6.8474 I-0.0405 J-0.1245
G3 X3.4279 Y6.841 I0 J-0.1309
G3 X3.3914 Y6.8224 I0.0405 J-0.1245
G3 X3.3625 Y6.7934 I0.0769 J-0.1059
G3 X3.3439 Y6.7569 I0.1059 J-0.0769
G3 X3.3375 Y6.7165 I0.1245 J-0.0405
G1 X3.3375 Y6.7165
G1 X3.3375 Y6.7165
G3 X3.3439 Y6.676 I0.1309 J0
G3 X3.3625 Y6.6395 I0.1245 J0.0405
G3 X3.3914 Y6.6106 I0.1059 J0.0769
G3 X3.4279 Y6.592 I0.0769 J0.1059
G3 X3.4684 Y6.5856 I0.0405 J0.1245
G3 X3.5088 Y6.592 I0 J0.1309
G3 X3.5453 Y6.6106 I-0.0405 J0.1245
G3 X3.5743 Y6.6395 I-0.0769 J0.1059
G3 X3.5929 Y6.676 I-0.1059 J0.0769
G3 X3.5993 Y6.7165 I-0.1245 J0.0405
G1 X3.5993 Y6.7165
G1 X3.5993 Y6.7165
G3 X3.5929 Y6.7569 I-0.1309 J0
G1 Z-0.4 F30
G3 X3.5743 Y6.7934 I-0.1245 J-0.0405 F10
G3 X3.5453 Y6.8224 I-0.1059 J-0.0769
G3 X3.5088 Y6.841 I-0.0769 J-0.1059
G3 X3.4684 Y6.8474 I-0.0405 J-0.1245
G3 X3.4279 Y6.841 I0 J-0.1309
G3 X3.3914 Y6.8224 I0.0405 J-0.1245
G3 X3.3625 Y6.7934 I0.0769 J-0.1059
G3 X3.3439 Y6.7569 I0.1059 J-0.0769
G3 X3.3375 Y6.7165 I0.1245 J-0.0405
G1 X3.3375 Y6.7165
G1 X3.3375 Y6.7165
G3 X3.3439 Y6.676 I0.1309 J0
G3 X3.3625 Y6.6395 I0.1245 J0.0405
G3 X3.3914 Y6.6106 I0.1059 J0.0769
G3 X3.4279 Y6.592 I0.0769 J0.1059
G3 X3.4684 Y6.5856 I0.0405 J0.1245
G3 X3.5088 Y6.592 I0 J0.1309
G3 X3.5453 Y6.6106 I-0.0405 J0.1245
G3 X3.5743 Y6.6395 I-0.0769 J0.1059
G3 X3.5929 Y6.676 I-0.1059 J0.0769
G3 X3.5993 Y6.7165 I-0.1245 J0.0405
G1 X3.5993 Y6.7165
G1 X3.5993 Y6.7165
G3 X3.5929 Y6.7569 I-0.1309 J0
G1 Z-0.5 F30
G3 X3.5743 Y6.7934 I-0.1245 J-0.0405 F10
G3 X3.5453 Y6.8224 I-0.1059 J-0.0769
G3 X3.5088 Y6.841 I-0.0769 J-0.1059
G3 X3.4684 Y6.8474 I-0.0405 J-0.1245
G3 X3.4279 Y6.841 I0 J-0.1309
G3 X3.3914 Y6.8224 I0.0405 J-0.1245
G3 X3.3625 Y6.7934 I0.0769 J-0.1059
G3 X3.3439 Y6.7569 I0.1059 J-0.0769
G3 X3.3375 Y6.7165 I0.1245 J-0.0405
G1 X3.3375 Y6.7165
G1 X3.3375 Y6.7165
G3 X3.3439 Y6.676 I0.1309 J0
G3 X3.3625 Y6.6395 I0.1245 J0.0405
G3 X3.3914 Y6.6106 I0.1059 J0.0769
G3 X3.4279 Y6.592 I0.0769 J0.1059
G3 X3.4684 Y6.5856 I0.0405 J0.1245
G3 X3.5088 Y6.592 I0 J0.1309
G3 X3.5453 Y6.6106 I-0.0405 J0.1245
G3 X3.5743 Y6.6395 I-0.0769 J0.1059
G3 X3.5929 Y6.676 I-0.1059 J0.0769
G3 X3.5993 Y6.7165 I-0.1245 J0.0405
G1 X3.5993 Y6.7165
G1 X3.5993 Y6.7165
G3 X3.5929 Y6.7569 I-0.1309 J0
G1 Z-0.6 F30
G3 X3.5743 Y6.7934 I-0.1245 J-0.0405 F10
G3 X3.5453 Y6.8224 I-0.1059 J-0.0769
G3 X3.5088 Y6.841 I-0.0769 J-0.1059
G3 X3.4684 Y6.8474 I-0.0405 J-0.1245
G3 X3.4279 Y6.841 I0 J-0.1309
G3 X3.3914 Y6.8224 I0.0405 J-0.1245
G3 X3.3625 Y6.7934 I0.0769 J-0.1059
G3 X3.3439 Y6.7569 I0.1059 J-0.0769
G3 X3.3375 Y6.7165 I0.1245 J-0.0405
G1 X3.3375 Y6.7165
G1 X3.3375 Y6.7165
G3 X3.3439 Y6.676 I0.1309 J0
G3 X3.3625 Y6.6395 I0.1245 J0.0405
G3 X3.3914 Y6.6106 I0.1059 J0.0769
G3 X3.4279 Y6.592 I0.0769 J0.1059
G3 X3.4684 Y6.5856 I0.0405 J0.1245
G3 X3.5088 Y6.592 I0 J0.1309
G3 X3.5453 Y6.6106 I-0.0405 J0.1245
G3 X3.5743 Y6.6395 I-0.0769 J0.1059
G3 X3.5929 Y6.676 I-0.1059 J0.0769
G3 X3.5993 Y6.7165 I-0.1245 J0.0405
G1 X3.5993 Y6.7165
G1 X3.5993 Y6.7165
G3 X3.5929 Y6.7569 I-0.1309 J0
G1 Z-0.7 F30
G3 X3.5743 Y6.7934 I-0.1245 J-0.0405 F10
G3 X3.5453 Y6.8224 I-0.1059 J-0.0769
G3 X3.5088 Y6.841 I-0.0769 J-0.1059
G3 X3.4684 Y6.8474 I-0.0405 J-0.1245
G3 X3.4279 Y6.841 I0 J-0.1309
G3 X3.3914 Y6.8224 I0.0405 J-0.1245
G3 X3.3625 Y6.7934 I0.0769 J-0.1059
G3 X3.3439 Y6.7569 I0.1059 J-0.0769
G3 X3.3375 Y6.7165 I0.1245 J-0.0405
G1 X3.3375 Y6.7165
G1 X3.3375 Y6.7165
G3 X3.3439 Y6.676 I0.1309 J0
G3 X3.3625 Y6.6395 I0.1245 J0.0405
G3 X3.3914 Y6.6106 I0.1059 J0.0769
G3 X3.4279 Y6.592 I0.0769 J0.1059
G3 X3.4684 Y6.5856 I0.0405 J0.1245
G3 X3.5088 Y6.592 I0 J0.1309
G3 X3.5453 Y6.6106 I-0.0405 J0.1245
G3 X3.5743 Y6.6395 I-0.0769 J0.1059
G3 X3.5929 Y6.676 I-0.1059 J0.0769
G3 X3.5993 Y6.7165 I-0.1245 J0.0405
G1 X3.5993 Y6.7165
G1 X3.5993 Y6.7165
G3 X3.5929 Y6.7569 I-0.1309 J0
G1 Z-0.8 F30
G3 X3.5743 Y6.7934 I-0.1245 J-0.0405 F10
G3 X3.5453 Y6.8224 I-0.1059 J-0.0769
G3 X3.5088 Y6.841 I-0.0769 J-0.1059
G3 X3.4684 Y6.8474 I-0.0405 J-0.1245
G3 X3.4279 Y6.841 I0 J-0.1309
G3 X3.3914 Y6.8224 I0.0405 J-0.1245
G3 X3.3625 Y6.7934 I0.0769 J-0.1059
G3 X3.3439 Y6.7569 I0.1059 J-0.0769
G3 X3.3375 Y6.7165 I0.1245 J-0.0405
G1 X3.3375 Y6.7165
G1 X3.3375 Y6.7165
G3 X3.3439 Y6.676 I0.1309 J0
G3 X3.3625 Y6.6395 I0.1245 J0.0405
G3 X3.3914 Y6.6106 I0.1059 J0.0769
G3 X3.4279 Y6.592 I0.0769 J0.1059
G3 X3.4684 Y6.5856 I0.0405 J0.1245
G3 X3.5088 Y6.592 I0 J0.1309
G3 X3.5453 Y6.6106 I-0.0405 J0.1245
G3 X3.5743 Y6.6395 I-0.0769 J0.1059
G3 X3.5929 Y6.676 I-0.1059 J0.0769
G3 X3.5993 Y6.7165 I-0.1245 J0.0405
G1 X3.5993 Y6.7165
G1 X3.5993 Y6.7165
G3 X3.5929 Y6.7569 I-0.1309 J0
G0 Z0.5
G0 X22.2526 Y2.3468
G1 Z-0.1 F30
G3 X22.253 Y2.3449 I0.005 J0 F10
G3 X22.2541 Y2.3432 I0.0046 J0.0019
G3 X22.2557 Y2.3421 I0.0035 J0.0035
G3 X22.2576 Y2.3418 I0.0019 J0.0046
G3 X22.2595 Y2.3421 I0 J0.005
G3 X22.2611 Y2.3432 I-0.0019 J0.0046
G3 X22.2622 Y2.3449 I-0.0035 J0.0035
G3 X22.2626 Y2.3468 I-0.0046 J0.0019
G3 X22.2622 Y2.3487 I-0.005 J0
G3 X22.2611 Y2.3503 I-0.0046 J-0.0019
G3 X22.2595 Y2.3514 I-0.0035 J-0.0035
G3 X22.2576 Y2.3518 I-0.0019 J-0.0046
G3 X22.2557 Y2.3514 I0 J-0.005
G3 X22.2541 Y2.3503 I0.0019 J-0.0046
G3 X22.253 Y2.3487 I0.0035 J-0.0035
G3 X22.2526 Y2.3468 I0.0046 J-0.0019
G1 Z-0.2 F30
G3 X22.253 Y2.3449 I0.005 J0 F10
G3 X22.2541 Y2.3432 I0.0046 J0.0019
G3 X22.2557 Y2.3421 I0.0035 J0.0035
G3 X22.2576 Y2.3418 I0.0019 J0.0046
G3 X22.2595 Y2.3421 I0 J0.005
G3 X22.2611 Y2.3432 I-0.0019 J0.0046
G3 X22.2622 Y2.3449 I-0.0035 J0.0035
G3 X22.2626 Y2.3468 I-0.0046 J0.0019
G3 X22.2622 Y2.3487 I-0.005 J0
G3 X22.2611 Y2.3503 I-0.0046 J-0.0019
G3 X22.2595 Y2.3514 I-0.0035 J-0.0035
G3 X22.2576 Y2.3518 I-0.0019 J-0.0046
G3 X22.2557 Y2.3514 I0 J-0.005
G3 X22.2541 Y2.3503 I0.0019 J-0.0046
G3 X22.253 Y2.3487 I0.0035 J-0.0035
G3 X22.2526 Y2.3468 I0.0046 J-0.0019
G1 Z-0.3 F30
G3 X22.253 Y2.3449 I0.005 J0 F10
G3 X22.2541 Y2.3432 I0.0046 J0.0019
G3 X22.2557 Y2.3421 I0.0035 J0.0035
G3 X22.2576 Y2.3418 I0.0019 J0.0046
G3 X22.2595 Y2.3421 I0 J0.005
G3 X22.2611 Y2.3432 I-0.0019 J0.0046
G3 X22.2622 Y2.3449 I-0.0035 J0.0035
G3 X22.2626 Y2.3468 I-0.0046 J0.0019
G3 X22.2622 Y2.3487 I-0.005 J0
G3 X22.2611 Y2.3503 I-0.0046 J-0.0019
G3 X22.2595 Y2.3514 I-0.0035 J-0.0035
G3 X22.2576 Y2.3518 I-0.0019 J-0.0046
G3 X22.2557 Y2.3514 I0 J-0.005
G3 X22.2541 Y2.3503 I0.0019 J-0.0046
G3 X22.253 Y2.3487 I0.0035 J-0.0035
G3 X22.2526 Y2.3468 I0.0046 J-0.0019
G1 Z-0.4 F30
G3 X22.253 Y2.3449 I0.005 J0 F10
G3 X22.2541 Y2.3432 I0.0046 J0.0019
G3 X22.2557 Y2.3421 I0.0035 J0.0035
G3 X22.2576 Y2.3418 I0.0019 J0.0046
G3 X22.2595 Y2.3421 I0 J0.005
G3 X22.2611 Y2.3432 I-0.0019 J0.0046
G3 X22.2622 Y2.3449 I-0.0035 J0.0035
G3 X22.2626 Y2.3468 I-0.0046 J0.0019
G3 X22.2622 Y2.3487 I-0.005 J0
G3 X22.2611 Y2.3503 I-0.0046 J-0.0019
G3 X22.2595 Y2.3514 I-0.0035 J-0.0035
G3 X22.2576 Y2.3518 I-0.0019 J-0.0046
G3 X22.2557 Y2.3514 I0 J-0.005
G3 X22.2541 Y2.3503 I0.0019 J-0.0046
G3 X22.253 Y2.3487 I0.0035 J-0.0035
G3 X22.2526 Y2.3468 I0.0046 J-0.0019
G1 Z-0.5 F30
G3 X22.253 Y2.3449 I0.005 J0 F10
G3 X22.2541 Y2.3432 I0.0046 J0.0019
G3 X22.2557 Y2.3421 I0.0035 J0.0035
G3 X22.2576 Y2.3418 I0.0019 J0.0046
G3 X22.2595 Y2.3421 I0 J0.005
G3 X22.2611 Y2.3432 I-0.0019 J0.0046
G3 X22.2622 Y2.3449 I-0.0035 J0.0035
G3 X22.2626 Y2.3468 I-0.0046 J0.0019
G3 X22.2622 Y2.3487 I-0.005 J0
G3 X22.2611 Y2.3503 I-0.0046 J-0.0019
G3 X22.2595 Y2.3514 I-0.0035 J-0.0035
G3 X22.2576 Y2.3518 I-0.0019 J-0.0046
G3 X22.2557 Y2.3514 I0 J-0.005
G3 X22.2541 Y2.3503 I0.0019 J-0.0046
G3 X22.253 Y2.3487 I0.0035 J-0.0035
G3 X22.2526 Y2.3468 I0.0046 J-0.0019
G1 Z-0.6 F30
G3 X22.253 Y2.3449 I0.005 J0 F10
G3 X22.2541 Y2.3432 I0.0046 J0.0019
G3 X22.2557 Y2.3421 I0.0035 J0.0035
G3 X22.2576 Y2.3418 I0.0019 J0.0046
G3 X22.2595 Y2.3421 I0 J0.005
G3 X22.2611 Y2.3432 I-0.0019 J0.0046
G3 X22.2622 Y2.3449 I-0.0035 J0.0035
G3 X22.2626 Y2.3468 I-0.0046 J0.0019
G3 X22.2622 Y2.3487 I-0.005 J0
G3 X22.2611 Y2.3503 I-0.0046 J-0.0019
G3 X22.2595 Y2.3514 I-0.0035 J-0.0035
G3 X22.2576 Y2.3518 I-0.0019 J-0.0046
G3 X22.2557 Y2.3514 I0 J-0.005
G3 X22.2541 Y2.3503 I0.0019 J-0.0046
G3 X22.253 Y2.3487 I0.0035 J-0.0035
G3 X22.2526 Y2.3468 I0.0046 J-0.0019
G1 Z-0.7 F30
G3 X22.253 Y2.3449 I0.005 J0 F10
G3 X22.2541 Y2.3432 I0.0046 J0.0019
G3 X22.2557 Y2.3421 I0.0035 J0.0035
G3 X22.2576 Y2.3418 I0.0019 J0.0046
G3 X22.2595 Y2.3421 I0 J0.005
G3 X22.2611 Y2.3432 I-0.0019 J0.0046
G3 X22.2622 Y2.3449 I-0.0035 J0.0035
G3 X22.2626 Y2.3468 I-0.0046 J0.0019
G3 X22.2622 Y2.3487 I-0.005 J0
G3 X22.2611 Y2.3503 I-0.0046 J-0.0019
G3 X22.2595 Y2.3514 I-0.0035 J-0.0035
G3 X22.2576 Y2.3518 I-0.0019 J-0.0046
G3 X22.2557 Y2.3514 I0 J-0.005
G3 X22.2541 Y2.3503 I0.0019 J-0.0046
G3 X22.253 Y2.3487 I0.0035 J-0.0035
G3 X22.2526 Y2.3468 I0.0046 J-0.0019
G1 Z-0.8 F30
G3 X22.253 Y2.3449 I0.005 J0 F10
G3 X22.2541 Y2.3432 I0.0046 J0.0019
G3 X22.2557 Y2.3421 I0.0035 J0.0035
G3 X22.2576 Y2.3418 I0.0019 J0.0046
G3 X22.2595 Y2.3421 I0 J0.005
G3 X22.2611 Y2.3432 I-0.0019 J0.0046
G3 X22.2622 Y2.3449 I-0.0035 J0.0035
G3 X22.2626 Y2.3468 I-0.0046 J0.0019
G3 X22.2622 Y2.3487 I-0.005 J0
G3 X22.2611 Y2.3503 I-0.0046 J-0.0019
G3 X22.2595 Y2.3514 I-0.0035 J-0.0035
G3 X22.2576 Y2.3518 I-0.0019 J-0.0046
G3 X22.2557 Y2.3514 I0 J-0.005
G3 X22.2541 Y2.3503 I0.0019 J-0.0046
G3 X22.253 Y2.3487 I0.0035 J-0.0035
G3 X22.2526 Y2.3468 I0.0046 J-0.0019
G0 Z0.5
G0 X22.2331 Y0.9249
G1 Z-0.1 F30
G3 X22.2335 Y0.923 I0.005 J0 F10
G3 X22.2346 Y0.9214 I0.0046 J0.0019
G3 X22.2362 Y0.9203 I0.0035 J0.0035
G3 X22.2381 Y0.9199 I0.0019 J0.0046
G3 X22.24 Y0.9203 I0 J0.005
G3 X22.2417 Y0.9214 I-0.0019 J0.0046
G3 X22.2428 Y0.923 I-0.0035 J0.0035
G3 X22.2431 Y0.9249 I-0.0046 J0.0019
G3 X22.2428 Y0.9268 I-0.005 J0
G3 X22.2417 Y0.9285 I-0.0046 J-0.0019
G3 X22.24 Y0.9295 I-0.0035 J-0.0035
G3 X22.2381 Y0.9299 I-0.0019 J-0.0046
G3 X22.2362 Y0.9295 I0 J-0.005
G3 X22.2346 Y0.9285 I0.0019 J-0.0046
G3 X22.2335 Y0.9268 I0.0035 J-0.0035
G3 X22.2331 Y0.9249 I0.0046 J-0.0019
G1 Z-0.2 F30
G3 X22.2335 Y0.923 I0.005 J0 F10
G3 X22.2346 Y0.9214 I0.0046 J0.0019
G3 X22.2362 Y0.9203 I0.0035 J0.0035
G3 X22.2381 Y0.9199 I0.0019 J0.0046
G3 X22.24 Y0.9203 I0 J0.005
G3 X22.2417 Y0.9214 I-0.0019 J0.0046
G3 X22.2428 Y0.923 I-0.0035 J0.0035
G3 X22.2431 Y0.9249 I-0.0046 J0.0019
G3 X22.2428 Y0.9268 I-0.005 J0
G3 X22.2417 Y0.9285 I-0.0046 J-0.0019
G3 X22.24 Y0.9295 I-0.0035 J-0.0035
G3 X22.2381 Y0.9299 I-0.0019 J-0.0046
G3 X22.2362 Y0.9295 I0 J-0.005
G3 X22.2346 Y0.9285 I0.0019 J-0.0046
G3 X22.2335 Y0.9268 I0.0035 J-0.0035
G3 X22.2331 Y0.9249 I0.0046 J-0.0019
G1 Z-0.3 F30
G3 X22.2335 Y0.923 I0.005 J0 F10
G3 X22.2346 Y0.9214 I0.0046 J0.0019
G3 X22.2362 Y0.9203 I0.0035 J0.0035
G3 X22.2381 Y0.9199 I0.0019 J0.0046
G3 X22.24 Y0.9203 I0 J0.005
G3 X22.2417 Y0.9214 I-0.0019 J0.0046
G3 X22.2428 Y0.923 I-0.0035 J0.0035
G3 X22.2431 Y0.9249 I-0.0046 J0.0019
G3 X22.2428 Y0.9268 I-0.005 J0
G3 X22.2417 Y0.9285 I-0.0046 J-0.0019
G3 X22.24 Y0.9295 I-0.0035 J-0.0035
G3 X22.2381 Y0.9299 I-0.0019 J-0.0046
G3 X22.2362 Y0.9295 I0 J-0.005
G3 X22.2346 Y0.9285 I0.0019 J-0.0046
G3 X22.2335 Y0.9268 I0.0035 J-0.0035
G3 X22.2331 Y0.9249 I0.0046 J-0.0019
G1 Z-0.4 F30
G3 X22.2335 Y0.923 I0.005 J0 F10
G3 X22.2346 Y0.9214 I0.0046 J0.0019
G3 X22.2362 Y0.9203 I0.0035 J0.0035
G3 X22.2381 Y0.9199 I0.0019 J0.0046
G3 X22.24 Y0.9203 I0 J0.005
G3 X22.2417 Y0.9214 I-0.0019 J0.0046
G3 X22.2428 Y0.923 I-0.0035 J0.0035
G3 X22.2431 Y0.9249 I-0.0046 J0.0019
G3 X22.2428 Y0.9268 I-0.005 J0
G3 X22.2417 Y0.9285 I-0.0046 J-0.0019
G3 X22.24 Y0.9295 I-0.0035 J-0.0035
G3 X22.2381 Y0.9299 I-0.0019 J-0.0046
G3 X22.2362 Y0.9295 I0 J-0.005
G3 X22.2346 Y0.9285 I0.0019 J-0.0046
G3 X22.2335 Y0.9268 I0.0035 J-0.0035
G3 X22.2331 Y0.9249 I0.0046 J-0.0019
G1 Z-0.5 F30
G3 X22.2335 Y0.923 I0.005 J0 F10
G3 X22.2346 Y0.9214 I0.0046 J0.0019
G3 X22.2362 Y0.9203 I0.0035 J0.0035
G3 X22.2381 Y0.9199 I0.0019 J0.0046
G3 X22.24 Y0.9203 I0 J0.005
G3 X22.2417 Y0.9214 I-0.0019 J0.0046
G3 X22.2428 Y0.923 I-0.0035 J0.0035
G3 X22.2431 Y0.9249 I-0.0046 J0.0019
G3 X22.2428 Y0.9268 I-0.005 J0
G3 X22.2417 Y0.9285 I-0.0046 J-0.0019
G3 X22.24 Y0.9295 I-0.0035 J-0.0035
G3 X22.2381 Y0.9299 I-0.0019 J-0.0046
G3 X22.2362 Y0.9295 I0 J-0.005
G3 X22.2346 Y0.9285 I0.0019 J-0.0046
G3 X22.2335 Y0.9268 I0.0035 J-0.0035
G3 X22.2331 Y0.9249 I0.0046 J-0.0019
G1 Z-0.6 F30
G3 X22.2335 Y0.923 I0.005 J0 F10
G3 X22.2346 Y0.9214 I0.0046 J0.0019
G3 X22.2362 Y0.9203 I0.0035 J0.0035
G3 X22.2381 Y0.9199 I0.0019 J0.0046
G3 X22.24 Y0.9203 I0 J0.005
G3 X22.2417 Y0.9214 I-0.0019 J0.0046
G3 X22.2428 Y0.923 I-0.0035 J0.0035
G3 X22.2431 Y0.9249 I-0.0046 J0.0019
G3 X22.2428 Y0.9268 I-0.005 J0
G3 X22.2417 Y0.9285 I-0.0046 J-0.0019
G3 X22.24 Y0.9295 I-0.0035 J-0.0035
G3 X22.2381 Y0.9299 I-0.0019 J-0.0046
G3 X22.2362 Y0.9295 I0 J-0.005
G3 X22.2346 Y0.9285 I0.0019 J-0.0046
G3 X22.2335 Y0.9268 I0.0035 J-0.0035
G3 X22.2331 Y0.9249 I0.0046 J-0.0019
G1 Z-0.7 F30
G3 X22.2335 Y0.923 I0.005 J0 F10
G3 X22.2346 Y0.9214 I0.0046 J0.0019
G3 X22.2362 Y0.9203 I0.0035 J0.0035
G3 X22.2381 Y0.9199 I0.0019 J0.0046
G3 X22.24 Y0.9203 I0 J0.005
G3 X22.2417 Y0.9214 I-0.0019 J0.0046
G3 X22.2428 Y0.923 I-0.0035 J0.0035
G3 X22.2431 Y0.9249 I-0.0046 J0.0019
G3 X22.2428 Y0.9268 I-0.005 J0
G3 X22.2417 Y0.9285 I-0.0046 J-0.0019
G3 X22.24 Y0.9295 I-0.0035 J-0.0035
G3 X22.2381 Y0.9299 I-0.0019 J-0.0046
G3 X22.2362 Y0.9295 I0 J-0.005
G3 X22.2346 Y0.9285 I0.0019 J-0.0046
G3 X22.2335 Y0.9268 I0.0035 J-0.0035
G3 X22.2331 Y0.9249 I0.0046 J-0.0019
G1 Z-0.8 F30
G3 X22.2335 Y0.923 I0.005 J0 F10
G3 X22.2346 Y0.9214 I0.0046 J0.0019
G3 X22.2362 Y0.9203 I0.0035 J0.0035
G3 X22.2381 Y0.9199 I0.0019 J0.0046
G3 X22.24 Y0.9203 I0 J0.005
G3 X22.2417 Y0.9214 I-0.0019 J0.0046
G3 X22.2428 Y0.923 I-0.0035 J0.0035
G3 X22.2431 Y0.9249 I-0.0046 J0.0019
G3 X22.2428 Y0.9268 I-0.005 J0
G3 X22.2417 Y0.9285 I-0.0046 J-0.0019
G3 X22.24 Y0.9295 I-0.0035 J-0.0035
G3 X22.2381 Y0.9299 I-0.0019 J-0.0046
G3 X22.2362 Y0.9295 I0 J-0.005
G3 X22.2346 Y0.9285 I0.0019 J-0.0046
G3 X22.2335 Y0.9268 I0.0035 J-0.0035
G3 X22.2331 Y0.9249 I0.0046 J-0.0019
G0 Z0.5
G0 X17.5286 Y2.3487
G1 Z-0.1 F30
G3 X17.5282 Y2.3468 I0.0046 J-0.0019 F10
G3 X17.5286 Y2.3449 I0.005 J0
G3 X17.5297 Y2.3432 I0.0046 J0.0019
G3 X17.5313 Y2.3421 I0.0035 J0.0035
G3 X17.5332 Y2.3418 I0.0019 J0.0046
G3 X17.5351 Y2.3421 I0 J0.005
G3 X17.5367 Y2.3432 I-0.0019 J0.0046
G3 X17.5378 Y2.3449 I-0.0035 J0.0035
G3 X17.5382 Y2.3468 I-0.0046 J0.0019
G3 X17.5378 Y2.3487 I-0.005 J0
G3 X17.5367 Y2.3503 I-0.0046 J-0.0019
G3 X17.5351 Y2.3514 I-0.0035 J-0.0035
G3 X17.5332 Y2.3518 I-0.0019 J-0.0046
G3 X17.5313 Y2.3514 I0 J-0.005
G3 X17.5297 Y2.3503 I0.0019 J-0.0046
G3 X17.5286 Y2.3487 I0.0035 J-0.0035
G1 Z-0.2 F30
G3 X17.5282 Y2.3468 I0.0046 J-0.0019 F10
G3 X17.5286 Y2.3449 I0.005 J0
G3 X17.5297 Y2.3432 I0.0046 J0.0019
G3 X17.5313 Y2.3421 I0.0035 J0.0035
G3 X17.5332 Y2.3418 I0.0019 J0.0046
G3 X17.5351 Y2.3421 I0 J0.005
G3 X17.5367 Y2.3432 I-0.0019 J0.0046
G3 X17.5378 Y2.3449 I-0.0035 J0.0035
G3 X17.5382 Y2.3468 I-0.0046 J0.0019
G3 X17.5378 Y2.3487 I-0.005 J0
G3 X17.5367 Y2.3503 I-0.0046 J-0.0019
G3 X17.5351 Y2.3514 I-0.0035 J-0.0035
G3 X17.5332 Y2.3518 I-0.0019 J-0.0046
G3 X17.5313 Y2.3514 I0 J-0.005
G3 X17.5297 Y2.3503 I0.0019 J-0.0046
G3 X17.5286 Y2.3487 I0.0035 J-0.0035
G1 Z-0.3 F30
G3 X17.5282 Y2.3468 I0.0046 J-0.0019 F10
G3 X17.5286 Y2.3449 I0.005 J0
G3 X17.5297 Y2.3432 I0.0046 J0.0019
G3 X17.5313 Y2.3421 I0.0035 J0.0035
G3 X17.5332 Y2.3418 I0.0019 J0.0046
G3 X17.5351 Y2.3421 I0 J0.005
G3 X17.5367 Y2.3432 I-0.0019 J0.0046
G3 X17.5378 Y2.3449 I-0.0035 J0.0035
G3 X17.5382 Y2.3468 I-0.0046 J0.0019
G3 X17.5378 Y2.3487 I-0.005 J0
G3 X17.5367 Y2.3503 I-0.0046 J-0.0019
G3 X17.5351 Y2.3514 I-0.0035 J-0.0035
G3 X17.5332 Y2.3518 I-0.0019 J-0.0046
G3 X17.5313 Y2.3514 I0 J-0.005
G3 X17.5297 Y2.3503 I0.0019 J-0.0046
G3 X17.5286 Y2.3487 I0.0035 J-0.0035
G1 Z-0.4 F30
G3 X17.5282 Y2.3468 I0.0046 J-0.0019 F10
G3 X17.5286 Y2.3449 I0.005 J0
G3 X17.5297 Y2.3432 I0.0046 J0.0019
G3 X17.5313 Y2.3421 I0.0035 J0.0035
G3 X17.5332 Y2.3418 I0.0019 J0.0046
G3 X17.5351 Y2.3421 I0 J0.005
G3 X17.5367 Y2.3432 I-0.0019 J0.0046
G3 X17.5378 Y2.3449 I-0.0035 J0.0035
G3 X17.5382 Y2.3468 I-0.0046 J0.0019
G3 X17.5378 Y2.3487 I-0.005 J0
G3 X17.5367 Y2.3503 I-0.0046 J-0.0019
G3 X17.5351 Y2.3514 I-0.0035 J-0.0035
G3 X17.5332 Y2.3518 I-0.0019 J-0.0046
G3 X17.5313 Y2.3514 I0 J-0.005
G3 X17.5297 Y2.3503 I0.0019 J-0.0046
G3 X17.5286 Y2.3487 I0.0035 J-0.0035
G1 Z-0.5 F30
G3 X17.5282 Y2.3468 I0.0046 J-0.0019 F10
G3 X17.5286 Y2.3449 I0.005 J0
G3 X17.5297 Y2.3432 I0.0046 J0.0019
G3 X17.5313 Y2.3421 I0.0035 J0.0035
G3 X17.5332 Y2.3418 I0.0019 J0.0046
G3 X17.5351 Y2.3421 I0 J0.005
G3 X17.5367 Y2.3432 I-0.0019 J0.0046
G3 X17.5378 Y2.3449 I-0.0035 J0.0035
G3 X17.5382 Y2.3468 I-0.0046 J0.0019
G3 X17.5378 Y2.3487 I-0.005 J0
G3 X17.5367 Y2.3503 I-0.0046 J-0.0019
G3 X17.5351 Y2.3514 I-0.0035 J-0.0035
G3 X17.5332 Y2.3518 I-0.0019 J-0.0046
G3 X17.5313 Y2.3514 I0 J-0.005
G3 X17.5297 Y2.3503 I0.0019 J-0.0046
G3 X17.5286 Y2.3487 I0.0035 J-0.0035
G1 Z-0.6 F30
G3 X17.5282 Y2.3468 I0.0046 J-0.0019 F10
G3 X17.5286 Y2.3449 I0.005 J0
G3 X17.5297 Y2.3432 I0.0046 J0.0019
G3 X17.5313 Y2.3421 I0.0035 J0.0035
G3 X17.5332 Y2.3418 I0.0019 J0.0046
G3 X17.5351 Y2.3421 I0 J0.005
G3 X17.5367 Y2.3432 I-0.0019 J0.0046
G3 X17.5378 Y2.3449 I-0.0035 J0.0035
G3 X17.5382 Y2.3468 I-0.0046 J0.0019
G3 X17.5378 Y2.3487 I-0.005 J0
G3 X17.5367 Y2.3503 I-0.0046 J-0.0019
G3 X17.5351 Y2.3514 I-0.0035 J-0.0035
G3 X17.5332 Y2.3518 I-0.0019 J-0.0046
G3 X17.5313 Y2.3514 I0 J-0.005
G3 X17.5297 Y2.3503 I0.0019 J-0.0046
G3 X17.5286 Y2.3487 I0.0035 J-0.0035
G1 Z-0.7 F30
G3 X17.5282 Y2.3468 I0.0046 J-0.0019 F10
G3 X17.5286 Y2.3449 I0.005 J0
G3 X17.5297 Y2.3432 I0.0046 J0.0019
G3 X17.5313 Y2.3421 I0.0035 J0.0035
G3 X17.5332 Y2.3418 I0.0019 J0.0046
G3 X17.5351 Y2.3421 I0 J0.005
G3 X17.5367 Y2.3432 I-0.0019 J0.0046
G3 X17.5378 Y2.3449 I-0.0035 J0.0035
G3 X17.5382 Y2.3468 I-0.0046 J0.0019
G3 X17.5378 Y2.3487 I-0.005 J0
G3 X17.5367 Y2.3503 I-0.0046 J-0.0019
G3 X17.5351 Y2.3514 I-0.0035 J-0.0035
G3 X17.5332 Y2.3518 I-0.0019 J-0.0046
G3 X17.5313 Y2.3514 I0 J-0.005
G3 X17.5297 Y2.3503 I0.0019 J-0.0046
G3 X17.5286 Y2.3487 I0.0035 J-0.0035
G1 Z-0.8 F30
G3 X17.5282 Y2.3468 I0.0046 J-0.0019 F10
G3 X17.5286 Y2.3449 I0.005 J0
G3 X17.5297 Y2.3432 I0.0046 J0.0019
G3 X17.5313 Y2.3421 I0.0035 J0.0035
G3 X17.5332 Y2.3418 I0.0019 J0.0046
G3 X17.5351 Y2.3421 I0 J0.005
G3 X17.5367 Y2.3432 I-0.0019 J0.0046
G3 X17.5378 Y2.3449 I-0.0035 J0.0035
G3 X17.5382 Y2.3468 I-0.0046 J0.0019
G3 X17.5378 Y2.3487 I-0.005 J0
G3 X17.5367 Y2.3503 I-0.0046 J-0.0019
G3 X17.5351 Y2.3514 I-0.0035 J-0.0035
G3 X17.5332 Y2.3518 I-0.0019 J-0.0046
G3 X17.5313 Y2.3514 I0 J-0.005
G3 X17.5297 Y2.3503 I0.0019 J-0.0046
G3 X17.5286 Y2.3487 I0.0035 J-0.0035
G0 Z0.5
G0 X16.4905 Y5.2145
G1 Z-0.1 F30
G3 X16.4921 Y5.2156 I-0.0019 J0.0046 F10
G3 X16.4932 Y5.2172 I-0.0035 J0.0035
G3 X16.4936 Y5.2191 I-0.0046 J0.0019
G3 X16.4932 Y5.2211 I-0.005 J0
G3 X16.4921 Y5.2227 I-0.0046 J-0.0019
G3 X16.4905 Y5.2238 I-0.0035 J-0.0035
G3 X16.4886 Y5.2241 I-0.0019 J-0.0046
G3 X16.4867 Y5.2238 I0 J-0.005
G3 X16.485 Y5.2227 I0.0019 J-0.0046
G3 X16.484 Y5.2211 I0.0035 J-0.0035
G3 X16.4836 Y5.2191 I0.0046 J-0.0019
G3 X16.484 Y5.2172 I0.005 J0
G3 X16.485 Y5.2156 I0.0046 J0.0019
G3 X16.4867 Y5.2145 I0.0035 J0.0035
G3 X16.4886 Y5.2141 I0.0019 J0.0046
G3 X16.4905 Y5.2145 I0 J0.005
G1 Z-0.2 F30
G3 X16.4921 Y5.2156 I-0.0019 J0.0046 F10
G3 X16.4932 Y5.2172 I-0.0035 J0.0035
G3 X16.4936 Y5.2191 I-0.0046 J0.0019
G3 X16.4932 Y5.2211 I-0.005 J0
G3 X16.4921 Y5.2227 I-0.0046 J-0.0019
G3 X16.4905 Y5.2238 I-0.0035 J-0.0035
G3 X16.4886 Y5.2241 I-0.0019 J-0.0046
G3 X16.4867 Y5.2238 I0 J-0.005
G3 X16.485 Y5.2227 I0.0019 J-0.0046
G3 X16.484 Y5.2211 I0.0035 J-0.0035
G3 X16.4836 Y5.2191 I0.0046 J-0.0019
G3 X16.484 Y5.2172 I0.005 J0
G3 X16.485 Y5.2156 I0.0046 J0.0019
G3 X16.4867 Y5.2145 I0.0035 J0.0035
G3 X16.4886 Y5.2141 I0.0019 J0.0046
G3 X16.4905 Y5.2145 I0 J0.005
G1 Z-0.3 F30
G3 X16.4921 Y5.2156 I-0.0019 J0.0046 F10
G3 X16.4932 Y5.2172 I-0.0035 J0.0035
G3 X16.4936 Y5.2191 I-0.0046 J0.0019
G3 X16.4932 Y5.2211 I-0.005 J0
G3 X16.4921 Y5.2227 I-0.0046 J-0.0019
G3 X16.4905 Y5.2238 I-0.0035 J-0.0035
G3 X16.4886 Y5.2241 I-0.0019 J-0.0046
G3 X16.4867 Y5.2238 I0 J-0.005
G3 X16.485 Y5.2227 I0.0019 J-0.0046
G3 X16.484 Y5.2211 I0.0035 J-0.0035
G3 X16.4836 Y5.2191 I0.0046 J-0.0019
G3 X16.484 Y5.2172 I0.005 J0
G3 X16.485 Y5.2156 I0.0046 J0.0019
G3 X16.4867 Y5.2145 I0.0035 J0.0035
G3 X16.4886 Y5.2141 I0.0019 J0.0046
G3 X16.4905 Y5.2145 I0 J0.005
G1 Z-0.4 F30
G3 X16.4921 Y5.2156 I-0.0019 J0.0046 F10
G3 X16.4932 Y5.2172 I-0.0035 J0.0035
G3 X16.4936 Y5.2191 I-0.0046 J0.0019
G3 X16.4932 Y5.2211 I-0.005 J0
G3 X16.4921 Y5.2227 I-0.0046 J-0.0019
G3 X16.4905 Y5.2238 I-0.0035 J-0.0035
G3 X16.4886 Y5.2241 I-0.0019 J-0.0046
G3 X16.4867 Y5.2238 I0 J-0.005
G3 X16.485 Y5.2227 I0.0019 J-0.0046
G3 X16.484 Y5.2211 I0.0035 J-0.0035
G3 X16.4836 Y5.2191 I0.0046 J-0.0019
G3 X16.484 Y5.2172 I0.005 J0
G3 X16.485 Y5.2156 I0.0046 J0.0019
G3 X16.4867 Y5.2145 I0.0035 J0.0035
G3 X16.4886 Y5.2141 I0.0019 J0.0046
G3 X16.4905 Y5.2145 I0 J0.005
G1 Z-0.5 F30
G3 X16.4921 Y5.2156 I-0.0019 J0.0046 F10
G3 X16.4932 Y5.2172 I-0.0035 J0.0035
G3 X16.4936 Y5.2191 I-0.0046 J0.0019
G3 X16.4932 Y5.2211 I-0.005 J0
G3 X16.4921 Y5.2227 I-0.0046 J-0.0019
G3 X16.4905 Y5.2238 I-0.0035 J-0.0035
G3 X16.4886 Y5.2241 I-0.0019 J-0.0046
G3 X16.4867 Y5.2238 I0 J-0.005
G3 X16.485 Y5.2227 I0.0019 J-0.0046
G3 X16.484 Y5.2211 I0.0035 J-0.0035
G3 X16.4836 Y5.2191 I0.0046 J-0.0019
G3 X16.484 Y5.2172 I0.005 J0
G3 X16.485 Y5.2156 I0.0046 J0.0019
G3 X16.4867 Y5.2145 I0.0035 J0.0035
G3 X16.4886 Y5.2141 I0.0019 J0.0046
G3 X16.4905 Y5.2145 I0 J0.005
G1 Z-0.6 F30
G3 X16.4921 Y5.2156 I-0.0019 J0.0046 F10
G3 X16.4932 Y5.2172 I-0.0035 J0.0035
G3 X16.4936 Y5.2191 I-0.0046 J0.0019
G3 X16.4932 Y5.2211 I-0.005 J0
G3 X16.4921 Y5.2227 I-0.0046 J-0.0019
G3 X16.4905 Y5.2238 I-0.0035 J-0.0035
G3 X16.4886 Y5.2241 I-0.0019 J-0.0046
G3 X16.4867 Y5.2238 I0 J-0.005
G3 X16.485 Y5.2227 I0.0019 J-0.0046
G3 X16.484 Y5.2211 I0.0035 J-0.0035
G3 X16.4836 Y5.2191 I0.0046 J-0.0019
G3 X16.484 Y5.2172 I0.005 J0
G3 X16.485 Y5.2156 I0.0046 J0.0019
G3 X16.4867 Y5.2145 I0.0035 J0.0035
G3 X16.4886 Y5.2141 I0.0019 J0.0046
G3 X16.4905 Y5.2145 I0 J0.005
G1 Z-0.7 F30
G3 X16.4921 Y5.2156 I-0.0019 J0.0046 F10
G3 X16.4932 Y5.2172 I-0.0035 J0.0035
G3 X16.4936 Y5.2191 I-0.0046 J0.0019
G3 X16.4932 Y5.2211 I-0.005 J0
G3 X16.4921 Y5.2227 I-0.0046 J-0.0019
G3 X16.4905 Y5.2238 I-0.0035 J-0.0035
G3 X16.4886 Y5.2241 I-0.0019 J-0.0046
G3 X16.4867 Y5.2238 I0 J-0.005
G3 X16.485 Y5.2227 I0.0019 J-0.0046
G3 X16.484 Y5.2211 I0.0035 J-0.0035
G3 X16.4836 Y5.2191 I0.0046 J-0.0019
G3 X16.484 Y5.2172 I0.005 J0
G3 X16.485 Y5.2156 I0.0046 J0.0019
G3 X16.4867 Y5.2145 I0.0035 J0.0035
G3 X16.4886 Y5.2141 I0.0019 J0.0046
G3 X16.4905 Y5.2145 I0 J0.005
G1 Z-0.8 F30
G3 X16.4921 Y5.2156 I-0.0019 J0.0046 F10
G3 X16.4932 Y5.2172 I-0.0035 J0.0035
G3 X16.4936 Y5.2191 I-0.0046 J0.0019
G3 X16.4932 Y5.2211 I-0.005 J0
G3 X16.4921 Y5.2227 I-0.0046 J-0.0019
G3 X16.4905 Y5.2238 I-0.0035 J-0.0035
G3 X16.4886 Y5.2241 I-0.0019 J-0.0046
G3 X16.4867 Y5.2238 I0 J-0.005
G3 X16.485 Y5.2227 I0.0019 J-0.0046
G3 X16.484 Y5.2211 I0.0035 J-0.0035
G3 X16.4836 Y5.2191 I0.0046 J-0.0019
G3 X16.484 Y5.2172 I0.005 J0
G3 X16.485 Y5.2156 I0.0046 J0.0019
G3 X16.4867 Y5.2145 I0.0035 J0.0035
G3 X16.4886 Y5.2141 I0.0019 J0.0046
G3 X16.4905 Y5.2145 I0 J0.005
G0 Z0.5
G0 X17.5118 Y0.9295
G1 Z-0.1 F30
G3 X17.5102 Y0.9285 I0.0019 J-0.0046 F10
G3 X17.5091 Y0.9268 I0.0035 J-0.0035
G3 X17.5087 Y0.9249 I0.0046 J-0.0019
G3 X17.5091 Y0.923 I0.005 J0
G3 X17.5102 Y0.9214 I0.0046 J0.0019
G3 X17.5118 Y0.9203 I0.0035 J0.0035
G3 X17.5137 Y0.9199 I0.0019 J0.0046
G3 X17.5156 Y0.9203 I0 J0.005
G3 X17.5173 Y0.9214 I-0.0019 J0.0046
G3 X17.5183 Y0.923 I-0.0035 J0.0035
G3 X17.5187 Y0.9249 I-0.0046 J0.0019
G3 X17.5183 Y0.9268 I-0.005 J0
G3 X17.5173 Y0.9285 I-0.0046 J-0.0019
G3 X17.5156 Y0.9295 I-0.0035 J-0.0035
G3 X17.5137 Y0.9299 I-0.0019 J-0.0046
G3 X17.5118 Y0.9295 I0 J-0.005
G1 Z-0.2 F30
G3 X17.5102 Y0.9285 I0.0019 J-0.0046 F10
G3 X17.5091 Y0.9268 I0.0035 J-0.0035
G3 X17.5087 Y0.9249 I0.0046 J-0.0019
G3 X17.5091 Y0.923 I0.005 J0
G3 X17.5102 Y0.9214 I0.0046 J0.0019
G3 X17.5118 Y0.9203 I0.0035 J0.0035
G3 X17.5137 Y0.9199 I0.0019 J0.0046
G3 X17.5156 Y0.9203 I0 J0.005
G3 X17.5173 Y0.9214 I-0.0019 J0.0046
G3 X17.5183 Y0.923 I-0.0035 J0.0035
G3 X17.5187 Y0.9249 I-0.0046 J0.0019
G3 X17.5183 Y0.9268 I-0.005 J0
G3 X17.5173 Y0.9285 I-0.0046 J-0.0019
G3 X17.5156 Y0.9295 I-0.0035 J-0.0035
G3 X17.5137 Y0.9299 I-0.0019 J-0.0046
G3 X17.5118 Y0.9295 I0 J-0.005
G1 Z-0.3 F30
G3 X17.5102 Y0.9285 I0.0019 J-0.0046 F10
G3 X17.5091 Y0.9268 I0.0035 J-0.0035
G3 X17.5087 Y0.9249 I0.0046 J-0.0019
G3 X17.5091 Y0.923 I0.005 J0
G3 X17.5102 Y0.9214 I0.0046 J0.0019
G3 X17.5118 Y0.9203 I0.0035 J0.0035
G3 X17.5137 Y0.9199 I0.0019 J0.0046
G3 X17.5156 Y0.9203 I0 J0.005
G3 X17.5173 Y0.9214 I-0.0019 J0.0046
G3 X17.5183 Y0.923 I-0.0035 J0.0035
G3 X17.5187 Y0.9249 I-0.0046 J0.0019
G3 X17.5183 Y0.9268 I-0.005 J0
G3 X17.5173 Y0.9285 I-0.0046 J-0.0019
G3 X17.5156 Y0.9295 I-0.0035 J-0.0035
G3 X17.5137 Y0.9299 I-0.0019 J-0.0046
G3 X17.5118 Y0.9295 I0 J-0.005
G1 Z-0.4 F30
G3 X17.5102 Y0.9285 I0.0019 J-0.0046 F10
G3 X17.5091 Y0.9268 I0.0035 J-0.0035
G3 X17.5087 Y0.9249 I0.0046 J-0.0019
G3 X17.5091 Y0.923 I0.005 J0
G3 X17.5102 Y0.9214 I0.0046 J0.0019
G3 X17.5118 Y0.9203 I0.0035 J0.0035
G3 X17.5137 Y0.9199 I0.0019 J0.0046
G3 X17.5156 Y0.9203 I0 J0.005
G3 X17.5173 Y0.9214 I-0.0019 J0.0046
G3 X17.5183 Y0.923 I-0.0035 J0.0035
G3 X17.5187 Y0.9249 I-0.0046 J0.0019
G3 X17.5183 Y0.9268 I-0.005 J0
G3 X17.5173 Y0.9285 I-0.0046 J-0.0019
G3 X17.5156 Y0.9295 I-0.0035 J-0.0035
G3 X17.5137 Y0.9299 I-0.0019 J-0.0046
G3 X17.5118 Y0.9295 I0 J-0.005
G1 Z-0.5 F30
G3 X17.5102 Y0.9285 I0.0019 J-0.0046 F10
G3 X17.5091 Y0.9268 I0.0035 J-0.0035
G3 X17.5087 Y0.9249 I0.0046 J-0.0019
G3 X17.5091 Y0.923 I0.005 J0
G3 X17.5102 Y0.9214 I0.0046 J0.0019
G3 X17.5118 Y0.9203 I0.0035 J0.0035
G3 X17.5137 Y0.9199 I0.0019 J0.0046
G3 X17.5156 Y0.9203 I0 J0.005
G3 X17.5173 Y0.9214 I-0.0019 J0.0046
G3 X17.5183 Y0.923 I-0.0035 J0.0035
G3 X17.5187 Y0.9249 I-0.0046 J0.0019
G3 X17.5183 Y0.9268 I-0.005 J0
G3 X17.5173 Y0.9285 I-0.0046 J-0.0019
G3 X17.5156 Y0.9295 I-0.0035 J-0.0035
G3 X17.5137 Y0.9299 I-0.0019 J-0.0046
G3 X17.5118 Y0.9295 I0 J-0.005
G1 Z-0.6 F30
G3 X17.5102 Y0.9285 I0.0019 J-0.0046 F10
G3 X17.5091 Y0.9268 I0.0035 J-0.0035
G3 X17.5087 Y0.9249 I0.0046 J-0.0019
G3 X17.5091 Y0.923 I0.005 J0
G3 X17.5102 Y0.9214 I0.0046 J0.0019
G3 X17.5118 Y0.9203 I0.0035 J0.0035
G3 X17.5137 Y0.9199 I0.0019 J0.0046
G3 X17.5156 Y0.9203 I0 J0.005
G3 X17.5173 Y0.9214 I-0.0019 J0.0046
G3 X17.5183 Y0.923 I-0.0035 J0.0035
G3 X17.5187 Y0.9249 I-0.0046 J0.0019
G3 X17.5183 Y0.9268 I-0.005 J0
G3 X17.5173 Y0.9285 I-0.0046 J-0.0019
G3 X17.5156 Y0.9295 I-0.0035 J-0.0035
G3 X17.5137 Y0.9299 I-0.0019 J-0.0046
G3 X17.5118 Y0.9295 I0 J-0.005
G1 Z-0.7 F30
G3 X17.5102 Y0.9285 I0.0019 J-0.0046 F10
G3 X17.5091 Y0.9268 I0.0035 J-0.0035
G3 X17.5087 Y0.9249 I0.0046 J-0.0019
G3 X17.5091 Y0.923 I0.005 J0
G3 X17.5102 Y0.9214 I0.0046 J0.0019
G3 X17.5118 Y0.9203 I0.0035 J0.0035
G3 X17.5137 Y0.9199 I0.0019 J0.0046
G3 X17.5156 Y0.9203 I0 J0.005
G3 X17.5173 Y0.9214 I-0.0019 J0.0046
G3 X17.5183 Y0.923 I-0.0035 J0.0035
G3 X17.5187 Y0.9249 I-0.0046 J0.0019
G3 X17.5183 Y0.9268 I-0.005 J0
G3 X17.5173 Y0.9285 I-0.0046 J-0.0019
G3 X17.5156 Y0.9295 I-0.0035 J-0.0035
G3 X17.5137 Y0.9299 I-0.0019 J-0.0046
G3 X17.5118 Y0.9295 I0 J-0.005
G1 Z-0.8 F30
G3 X17.5102 Y0.9285 I0.0019 J-0.0046 F10
G3 X17.5091 Y0.9268 I0.0035 J-0.0035
G3 X17.5087 Y0.9249 I0.0046 J-0.0019
G3 X17.5091 Y0.923 I0.005 J0
G3 X17.5102 Y0.9214 I0.0046 J0.0019
G3 X17.5118 Y0.9203 I0.0035 J0.0035
G3 X17.5137 Y0.9199 I0.0019 J0.0046
G3 X17.5156 Y0.9203 I0 J0.005
G3 X17.5173 Y0.9214 I-0.0019 J0.0046
G3 X17.5183 Y0.923 I-0.0035 J0.0035
G3 X17.5187 Y0.9249 I-0.0046 J0.0019
G3 X17.5183 Y0.9268 I-0.005 J0
G3 X17.5173 Y0.9285 I-0.0046 J-0.0019
G3 X17.5156 Y0.9295 I-0.0035 J-0.0035
G3 X17.5137 Y0.9299 I-0.0019 J-0.0046
G3 X17.5118 Y0.9295 I0 J-0.005
G0 Z0.5
G0 X5.3117 Y1.8804
G1 Z-0.1 F30
G3 X5.3113 Y1.8785 I0.0046 J-0.0019 F10
G3 X5.3117 Y1.8766 I0.005 J0
G3 X5.3128 Y1.875 I0.0046 J0.0019
G3 X5.3144 Y1.8739 I0.0035 J0.0035
G3 X5.3163 Y1.8735 I0.0019 J0.0046
G3 X5.3182 Y1.8739 I0 J0.005
G3 X5.3198 Y1.875 I-0.0019 J0.0046
G3 X5.3209 Y1.8766 I-0.0035 J0.0035
G3 X5.3213 Y1.8785 I-0.0046 J0.0019
G3 X5.3209 Y1.8804 I-0.005 J0
G3 X5.3198 Y1.882 I-0.0046 J-0.0019
G3 X5.3182 Y1.8831 I-0.0035 J-0.0035
G3 X5.3163 Y1.8835 I-0.0019 J-0.0046
G3 X5.3144 Y1.8831 I0 J-0.005
G3 X5.3128 Y1.882 I0.0019 J-0.0046
G3 X5.3117 Y1.8804 I0.0035 J-0.0035
G1 Z-0.2 F30
G3 X5.3113 Y1.8785 I0.0046 J-0.0019 F10
G3 X5.3117 Y1.8766 I0.005 J0
G3 X5.3128 Y1.875 I0.0046 J0.0019
G3 X5.3144 Y1.8739 I0.0035 J0.0035
G3 X5.3163 Y1.8735 I0.0019 J0.0046
G3 X5.3182 Y1.8739 I0 J0.005
G3 X5.3198 Y1.875 I-0.0019 J0.0046
G3 X5.3209 Y1.8766 I-0.0035 J0.0035
G3 X5.3213 Y1.8785 I-0.0046 J0.0019
G3 X5.3209 Y1.8804 I-0.005 J0
G3 X5.3198 Y1.882 I-0.0046 J-0.0019
G3 X5.3182 Y1.8831 I-0.0035 J-0.0035
G3 X5.3163 Y1.8835 I-0.0019 J-0.0046
G3 X5.3144 Y1.8831 I0 J-0.005
G3 X5.3128 Y1.882 I0.0019 J-0.0046
G3 X5.3117 Y1.8804 I0.0035 J-0.0035
G1 Z-0.3 F30
G3 X5.3113 Y1.8785 I0.0046 J-0.0019 F10
G3 X5.3117 Y1.8766 I0.005 J0
G3 X5.3128 Y1.875 I0.0046 J0.0019
G3 X5.3144 Y1.8739 I0.0035 J0.0035
G3 X5.3163 Y1.8735 I0.0019 J0.0046
G3 X5.3182 Y1.8739 I0 J0.005
G3 X5.3198 Y1.875 I-0.0019 J0.0046
G3 X5.3209 Y1.8766 I-0.0035 J0.0035
G3 X5.3213 Y1.8785 I-0.0046 J0.0019
G3 X5.3209 Y1.8804 I-0.005 J0
G3 X5.3198 Y1.882 I-0.0046 J-0.0019
G3 X5.3182 Y1.8831 I-0.0035 J-0.0035
G3 X5.3163 Y1.8835 I-0.0019 J-0.0046
G3 X5.3144 Y1.8831 I0 J-0.005
G3 X5.3128 Y1.882 I0.0019 J-0.0046
G3 X5.3117 Y1.8804 I0.0035 J-0.0035
G1 Z-0.4 F30
G3 X5.3113 Y1.8785 I0.0046 J-0.0019 F10
G3 X5.3117 Y1.8766 I0.005 J0
G3 X5.3128 Y1.875 I0.0046 J0.0019
G3 X5.3144 Y1.8739 I0.0035 J0.0035
G3 X5.3163 Y1.8735 I0.0019 J0.0046
G3 X5.3182 Y1.8739 I0 J0.005
G3 X5.3198 Y1.875 I-0.0019 J0.0046
G3 X5.3209 Y1.8766 I-0.0035 J0.0035
G3 X5.3213 Y1.8785 I-0.0046 J0.0019
G3 X5.3209 Y1.8804 I-0.005 J0
G3 X5.3198 Y1.882 I-0.0046 J-0.0019
G3 X5.3182 Y1.8831 I-0.0035 J-0.0035
G3 X5.3163 Y1.8835 I-0.0019 J-0.0046
G3 X5.3144 Y1.8831 I0 J-0.005
G3 X5.3128 Y1.882 I0.0019 J-0.0046
G3 X5.3117 Y1.8804 I0.0035 J-0.0035
G1 Z-0.5 F30
G3 X5.3113 Y1.8785 I0.0046 J-0.0019 F10
G3 X5.3117 Y1.8766 I0.005 J0
G3 X5.3128 Y1.875 I0.0046 J0.0019
G3 X5.3144 Y1.8739 I0.0035 J0.0035
G3 X5.3163 Y1.8735 I0.0019 J0.0046
G3 X5.3182 Y1.8739 I0 J0.005
G3 X5.3198 Y1.875 I-0.0019 J0.0046
G3 X5.3209 Y1.8766 I-0.0035 J0.0035
G3 X5.3213 Y1.8785 I-0.0046 J0.0019
G3 X5.3209 Y1.8804 I-0.005 J0
G3 X5.3198 Y1.882 I-0.0046 J-0.0019
G3 X5.3182 Y1.8831 I-0.0035 J-0.0035
G3 X5.3163 Y1.8835 I-0.0019 J-0.0046
G3 X5.3144 Y1.8831 I0 J-0.005
G3 X5.3128 Y1.882 I0.0019 J-0.0046
G3 X5.3117 Y1.8804 I0.0035 J-0.0035
G1 Z-0.6 F30
G3 X5.3113 Y1.8785 I0.0046 J-0.0019 F10
G3 X5.3117 Y1.8766 I0.005 J0
G3 X5.3128 Y1.875 I0.0046 J0.0019
G3 X5.3144 Y1.8739 I0.0035 J0.0035
G3 X5.3163 Y1.8735 I0.0019 J0.0046
G3 X5.3182 Y1.8739 I0 J0.005
G3 X5.3198 Y1.875 I-0.0019 J0.0046
G3 X5.3209 Y1.8766 I-0.0035 J0.0035
G3 X5.3213 Y1.8785 I-0.0046 J0.0019
G3 X5.3209 Y1.8804 I-0.005 J0
G3 X5.3198 Y1.882 I-0.0046 J-0.0019
G3 X5.3182 Y1.8831 I-0.0035 J-0.0035
G3 X5.3163 Y1.8835 I-0.0019 J-0.0046
G3 X5.3144 Y1.8831 I0 J-0.005
G3 X5.3128 Y1.882 I0.0019 J-0.0046
G3 X5.3117 Y1.8804 I0.0035 J-0.0035
G1 Z-0.7 F30
G3 X5.3113 Y1.8785 I0.0046 J-0.0019 F10
G3 X5.3117 Y1.8766 I0.005 J0
G3 X5.3128 Y1.875 I0.0046 J0.0019
G3 X5.3144 Y1.8739 I0.0035 J0.0035
G3 X5.3163 Y1.8735 I0.0019 J0.0046
G3 X5.3182 Y1.8739 I0 J0.005
G3 X5.3198 Y1.875 I-0.0019 J0.0046
G3 X5.3209 Y1.8766 I-0.0035 J0.0035
G3 X5.3213 Y1.8785 I-0.0046 J0.0019
G3 X5.3209 Y1.8804 I-0.005 J0
G3 X5.3198 Y1.882 I-0.0046 J-0.0019
G3 X5.3182 Y1.8831 I-0.0035 J-0.0035
G3 X5.3163 Y1.8835 I-0.0019 J-0.0046
G3 X5.3144 Y1.8831 I0 J-0.005
G3 X5.3128 Y1.882 I0.0019 J-0.0046
G3 X5.3117 Y1.8804 I0.0035 J-0.0035
G1 Z-0.8 F30
G3 X5.3113 Y1.8785 I0.0046 J-0.0019 F10
G3 X5.3117 Y1.8766 I0.005 J0
G3 X5.3128 Y1.875 I0.0046 J0.0019
G3 X5.3144 Y1.8739 I0.0035 J0.0035
G3 X5.3163 Y1.8735 I0.0019 J0.0046
G3 X5.3182 Y1.8739 I0 J0.005
G3 X5.3198 Y1.875 I-0.0019 J0.0046
G3 X5.3209 Y1.8766 I-0.0035 J0.0035
G3 X5.3213 Y1.8785 I-0.0046 J0.0019
G3 X5.3209 Y1.8804 I-0.005 J0
G3 X5.3198 Y1.882 I-0.0046 J-0.0019
G3 X5.3182 Y1.8831 I-0.0035 J-0.0035
G3 X5.3163 Y1.8835 I-0.0019 J-0.0046
G3 X5.3144 Y1.8831 I0 J-0.005
G3 X5.3128 Y1.882 I0.0019 J-0.0046
G3 X5.3117 Y1.8804 I0.0035 J-0.0035
G0 Z0.5
G0 X1.9804 Y5.2207
G1 Z-0.1 F30
G3 X1.9797 Y5.2221 I-0.0048 J-0.0015 F10
G3 X1.9786 Y5.2232 I-0.004 J-0.0029
G3 X1.9772 Y5.2239 I-0.0029 J-0.004
G3 X1.9756 Y5.2241 I-0.0015 J-0.0048
G3 X1.9741 Y5.2239 I0 J-0.005
G3 X1.9727 Y5.2232 I0.0015 J-0.0048
G3 X1.9716 Y5.2221 I0.0029 J-0.004
G3 X1.9709 Y5.2207 I0.004 J-0.0029
G3 X1.9706 Y5.2191 I0.0048 J-0.0015
G1 X1.9706 Y5.2191
G1 X1.9706 Y5.2191
G3 X1.9709 Y5.2176 I0.005 J0
G3 X1.9716 Y5.2162 I0.0048 J0.0015
G3 X1.9727 Y5.2151 I0.004 J0.0029
G3 X1.9741 Y5.2144 I0.0029 J0.004
G3 X1.9756 Y5.2141 I0.0015 J0.0048
G3 X1.9772 Y5.2144 I0 J0.005
G3 X1.9786 Y5.2151 I-0.0015 J0.0048
G3 X1.9797 Y5.2162 I-0.0029 J0.004
G3 X1.9804 Y5.2176 I-0.004 J0.0029
G3 X1.9806 Y5.2191 I-0.0048 J0.0015
G1 X1.9806 Y5.2191
G1 X1.9806 Y5.2191
G3 X1.9804 Y5.2207 I-0.005 J0
G1 Z-0.2 F30
G3 X1.9797 Y5.2221 I-0.0048 J-0.0015 F10
G3 X1.9786 Y5.2232 I-0.004 J-0.0029
G3 X1.9772 Y5.2239 I-0.0029 J-0.004
G3 X1.9756 Y5.2241 I-0.0015 J-0.0048
G3 X1.9741 Y5.2239 I0 J-0.005
G3 X1.9727 Y5.2232 I0.0015 J-0.0048
G3 X1.9716 Y5.2221 I0.0029 J-0.004
G3 X1.9709 Y5.2207 I0.004 J-0.0029
G3 X1.9706 Y5.2191 I0.0048 J-0.0015
G1 X1.9706 Y5.2191
G1 X1.9706 Y5.2191
G3 X1.9709 Y5.2176 I0.005 J0
G3 X1.9716 Y5.2162 I0.0048 J0.0015
G3 X1.9727 Y5.2151 I0.004 J0.0029
G3 X1.9741 Y5.2144 I0.0029 J0.004
G3 X1.9756 Y5.2141 I0.0015 J0.0048
G3 X1.9772 Y5.2144 I0 J0.005
G3 X1.9786 Y5.2151 I-0.0015 J0.0048
G3 X1.9797 Y5.2162 I-0.0029 J0.004
G3 X1.9804 Y5.2176 I-0.004 J0.0029
G3 X1.9806 Y5.2191 I-0.0048 J0.0015
G1 X1.9806 Y5.2191
G1 X1.9806 Y5.2191
G3 X1.9804 Y5.2207 I-0.005 J0
G1 Z-0.3 F30
G3 X1.9797 Y5.2221 I-0.0048 J-0.0015 F10
G3 X1.9786 Y5.2232 I-0.004 J-0.0029
G3 X1.9772 Y5.2239 I-0.0029 J-0.004
G3 X1.9756 Y5.2241 I-0.0015 J-0.0048
G3 X1.9741 Y5.2239 I0 J-0.005
G3 X1.9727 Y5.2232 I0.0015 J-0.0048
G3 X1.9716 Y5.2221 I0.0029 J-0.004
G3 X1.9709 Y5.2207 I0.004 J-0.0029
G3 X1.9706 Y5.2191 I0.0048 J-0.0015
G1 X1.9706 Y5.2191
G1 X1.9706 Y5.2191
G3 X1.9709 Y5.2176 I0.005 J0
G3 X1.9716 Y5.2162 I0.0048 J0.0015
G3 X1.9727 Y5.2151 I0.004 J0.0029
G3 X1.9741 Y5.2144 I0.0029 J0.004
G3 X1.9756 Y5.2141 I0.0015 J0.0048
G3 X1.9772 Y5.2144 I0 J0.005
G3 X1.9786 Y5.2151 I-0.0015 J0.0048
G3 X1.9797 Y5.2162 I-0.0029 J0.004
G3 X1.9804 Y5.2176 I-0.004 J0.0029
G3 X1.9806 Y5.2191 I-0.0048 J0.0015
G1 X1.9806 Y5.2191
G1 X1.9806 Y5.2191
G3 X1.9804 Y5.2207 I-0.005 J0
G1 Z-0.4 F30
G3 X1.9797 Y5.2221 I-0.0048 J-0.0015 F10
G3 X1.9786 Y5.2232 I-0.004 J-0.0029
G3 X1.9772 Y5.2239 I-0.0029 J-0.004
G3 X1.9756 Y5.2241 I-0.0015 J-0.0048
G3 X1.9741 Y5.2239 I0 J-0.005
G3 X1.9727 Y5.2232 I0.0015 J-0.0048
G3 X1.9716 Y5.2221 I0.0029 J-0.004
G3 X1.9709 Y5.2207 I0.004 J-0.0029
G3 X1.9706 Y5.2191 I0.0048 J-0.0015
G1 X1.9706 Y5.2191
G1 X1.9706 Y5.2191
G3 X1.9709 Y5.2176 I0.005 J0
G3 X1.9716 Y5.2162 I0.0048 J0.0015
G3 X1.9727 Y5.2151 I0.004 J0.0029
G3 X1.9741 Y5.2144 I0.0029 J0.004
G3 X1.9756 Y5.2141 I0.0015 J0.0048
G3 X1.9772 Y5.2144 I0 J0.005
G3 X1.9786 Y5.2151 I-0.0015 J0.0048
G3 X1.9797 Y5.2162 I-0.0029 J0.004
G3 X1.9804 Y5.2176 I-0.004 J0.0029
G3 X1.9806 Y5.2191 I-0.0048 J0.0015
G1 X1.9806 Y5.2191
G1 X1.9806 Y5.2191
G3 X1.9804 Y5.2207 I-0.005 J0
G1 Z-0.5 F30
G3 X1.9797 Y5.2221 I-0.0048 J-0.0015 F10
G3 X1.9786 Y5.2232 I-0.004 J-0.0029
G3 X1.9772 Y5.2239 I-0.0029 J-0.004
G3 X1.9756 Y5.2241 I-0.0015 J-0.0048
G3 X1.9741 Y5.2239 I0 J-0.005
G3 X1.9727 Y5.2232 I0.0015 J-0.0048
G3 X1.9716 Y5.2221 I0.0029 J-0.004
G3 X1.9709 Y5.2207 I0.004 J-0.0029
G3 X1.9706 Y5.2191 I0.0048 J-0.0015
G1 X1.9706 Y5.2191
G1 X1.9706 Y5.2191
G3 X1.9709 Y5.2176 I0.005 J0
G3 X1.9716 Y5.2162 I0.0048 J0.0015
G3 X1.9727 Y5.2151 I0.004 J0.0029
G3 X1.9741 Y5.2144 I0.0029 J0.004
G3 X1.9756 Y5.2141 I0.0015 J0.0048
G3 X1.9772 Y5.2144 I0 J0.005
G3 X1.9786 Y5.2151 I-0.0015 J0.0048
G3 X1.9797 Y5.2162 I-0.0029 J0.004
G3 X1.9804 Y5.2176 I-0.004 J0.0029
G3 X1.9806 Y5.2191 I-0.0048 J0.0015
G1 X1.9806 Y5.2191
G1 X1.9806 Y5.2191
G3 X1.9804 Y5.2207 I-0.005 J0
G1 Z-0.6 F30
G3 X1.9797 Y5.2221 I-0.0048 J-0.0015 F10
G3 X1.9786 Y5.2232 I-0.004 J-0.0029
G3 X1.9772 Y5.2239 I-0.0029 J-0.004
G3 X1.9756 Y5.2241 I-0.0015 J-0.0048
G3 X1.9741 Y5.2239 I0 J-0.005
G3 X1.9727 Y5.2232 I0.0015 J-0.0048
G3 X1.9716 Y5.2221 I0.0029 J-0.004
G3 X1.9709 Y5.2207 I0.004 J-0.0029
G3 X1.9706 Y5.2191 I0.0048 J-0.0015
G1 X1.9706 Y5.2191
G1 X1.9706 Y5.2191
G3 X1.9709 Y5.2176 I0.005 J0
G3 X1.9716 Y5.2162 I0.0048 J0.0015
G3 X1.9727 Y5.2151 I0.004 J0.0029
G3 X1.9741 Y5.2144 I0.0029 J0.004
G3 X1.9756 Y5.2141 I0.0015 J0.0048
G3 X1.9772 Y5.2144 I0 J0.005
G3 X1.9786 Y5.2151 I-0.0015 J0.0048
G3 X1.9797 Y5.2162 I-0.0029 J0.004
G3 X1.9804 Y5.2176 I-0.004 J0.0029
G3 X1.9806 Y5.2191 I-0.0048 J0.0015
G1 X1.9806 Y5.2191
G1 X1.9806 Y5.2191
G3 X1.9804 Y5.2207 I-0.005 J0
G1 Z-0.7 F30
G3 X1.9797 Y5.2221 I-0.0048 J-0.0015 F10
G3 X1.9786 Y5.2232 I-0.004 J-0.0029
G3 X1.9772 Y5.2239 I-0.0029 J-0.004
G3 X1.9756 Y5.2241 I-0.0015 J-0.0048
G3 X1.9741 Y5.2239 I0 J-0.005
G3 X1.9727 Y5.2232 I0.0015 J-0.0048
G3 X1.9716 Y5.2221 I0.0029 J-0.004
G3 X1.9709 Y5.2207 I0.004 J-0.0029
G3 X1.9706 Y5.2191 I0.0048 J-0.0015
G1 X1.9706 Y5.2191
G1 X1.9706 Y5.2191
G3 X1.9709 Y5.2176 I0.005 J0
G3 X1.9716 Y5.2162 I0.0048 J0.0015
G3 X1.9727 Y5.2151 I0.004 J0.0029
G3 X1.9741 Y5.2144 I0.0029 J0.004
G3 X1.9756 Y5.2141 I0.0015 J0.0048
G3 X1.9772 Y5.2144 I0 J0.005
G3 X1.9786 Y5.2151 I-0.0015 J0.0048
G3 X1.9797 Y5.2162 I-0.0029 J0.004
G3 X1.9804 Y5.2176 I-0.004 J0.0029
G3 X1.9806 Y5.2191 I-0.0048 J0.0015
G1 X1.9806 Y5.2191
G1 X1.9806 Y5.2191
G3 X1.9804 Y5.2207 I-0.005 J0
G1 Z-0.8 F30
G3 X1.9797 Y5.2221 I-0.0048 J-0.0015 F10
G3 X1.9786 Y5.2232 I-0.004 J-0.0029
G3 X1.9772 Y5.2239 I-0.0029 J-0.004
G3 X1.9756 Y5.2241 I-0.0015 J-0.0048
G3 X1.9741 Y5.2239 I0 J-0.005
G3 X1.9727 Y5.2232 I0.0015 J-0.0048
G3 X1.9716 Y5.2221 I0.0029 J-0.004
G3 X1.9709 Y5.2207 I0.004 J-0.0029
G3 X1.9706 Y5.2191 I0.0048 J-0.0015
G1 X1.9706 Y5.2191
G1 X1.9706 Y5.2191
G3 X1.9709 Y5.2176 I0.005 J0
G3 X1.9716 Y5.2162 I0.0048 J0.0015
G3 X1.9727 Y5.2151 I0.004 J0.0029
G3 X1.9741 Y5.2144 I0.0029 J0.004
G3 X1.9756 Y5.2141 I0.0015 J0.0048
G3 X1.9772 Y5.2144 I0 J0.005
G3 X1.9786 Y5.2151 I-0.0015 J0.0048
G3 X1.9797 Y5.2162 I-0.0029 J0.004
G3 X1.9804 Y5.2176 I-0.004 J0.0029
G3 X1.9806 Y5.2191 I-0.0048 J0.0015
G1 X1.9806 Y5.2191
G1 X1.9806 Y5.2191
G3 X1.9804 Y5.2207 I-0.005 J0
G0 Z0.5
G0 X13.1432 Y1.8769
G1 Z-0.1 F30
G3 X13.1439 Y1.8755 I0.0048 J0.0015 F10
G3 X13.145 Y1.8744 I0.004 J0.0029
G3 X13.1464 Y1.8737 I0.0029 J0.004
G3 X13.1479 Y1.8735 I0.0015 J0.0048
G3 X13.1495 Y1.8737 I0 J0.005
G3 X13.1509 Y1.8744 I-0.0015 J0.0048
G3 X13.152 Y1.8755 I-0.0029 J0.004
G3 X13.1527 Y1.8769 I-0.004 J0.0029
G3 X13.1529 Y1.8785 I-0.0048 J0.0015
G1 X13.1529 Y1.8785
G1 X13.1529 Y1.8785
G3 X13.1527 Y1.88 I-0.005 J0
G3 X13.152 Y1.8814 I-0.0048 J-0.0015
G3 X13.1509 Y1.8825 I-0.004 J-0.0029
G3 X13.1495 Y1.8832 I-0.0029 J-0.004
G3 X13.1479 Y1.8835 I-0.0015 J-0.0048
G3 X13.1464 Y1.8832 I0 J-0.005
G3 X13.145 Y1.8825 I0.0015 J-0.0048
G3 X13.1439 Y1.8814 I0.0029 J-0.004
G3 X13.1432 Y1.88 I0.004 J-0.0029
G3 X13.1429 Y1.8785 I0.0048 J-0.0015
G1 X13.1429 Y1.8785
G1 X13.1429 Y1.8785
G3 X13.1432 Y1.8769 I0.005 J0
G1 Z-0.2 F30
G3 X13.1439 Y1.8755 I0.0048 J0.0015 F10
G3 X13.145 Y1.8744 I0.004 J0.0029
G3 X13.1464 Y1.8737 I0.0029 J0.004
G3 X13.1479 Y1.8735 I0.0015 J0.0048
G3 X13.1495 Y1.8737 I0 J0.005
G3 X13.1509 Y1.8744 I-0.0015 J0.0048
G3 X13.152 Y1.8755 I-0.0029 J0.004
G3 X13.1527 Y1.8769 I-0.004 J0.0029
G3 X13.1529 Y1.8785 I-0.0048 J0.0015
G1 X13.1529 Y1.8785
G1 X13.1529 Y1.8785
G3 X13.1527 Y1.88 I-0.005 J0
G3 X13.152 Y1.8814 I-0.0048 J-0.0015
G3 X13.1509 Y1.8825 I-0.004 J-0.0029
G3 X13.1495 Y1.8832 I-0.0029 J-0.004
G3 X13.1479 Y1.8835 I-0.0015 J-0.0048
G3 X13.1464 Y1.8832 I0 J-0.005
G3 X13.145 Y1.8825 I0.0015 J-0.0048
G3 X13.1439 Y1.8814 I0.0029 J-0.004
G3 X13.1432 Y1.88 I0.004 J-0.0029
G3 X13.1429 Y1.8785 I0.0048 J-0.0015
G1 X13.1429 Y1.8785
G1 X13.1429 Y1.8785
G3 X13.1432 Y1.8769 I0.005 J0
G1 Z-0.3 F30
G3 X13.1439 Y1.8755 I0.0048 J0.0015 F10
G3 X13.145 Y1.8744 I0.004 J0.0029
G3 X13.1464 Y1.8737 I0.0029 J0.004
G3 X13.1479 Y1.8735 I0.0015 J0.0048
G3 X13.1495 Y1.8737 I0 J0.005
G3 X13.1509 Y1.8744 I-0.0015 J0.0048
G3 X13.152 Y1.8755 I-0.0029 J0.004
G3 X13.1527 Y1.8769 I-0.004 J0.0029
G3 X13.1529 Y1.8785 I-0.0048 J0.0015
G1 X13.1529 Y1.8785
G1 X13.1529 Y1.8785
G3 X13.1527 Y1.88 I-0.005 J0
G3 X13.152 Y1.8814 I-0.0048 J-0.0015
G3 X13.1509 Y1.8825 I-0.004 J-0.0029
G3 X13.1495 Y1.8832 I-0.0029 J-0.004
G3 X13.1479 Y1.8835 I-0.0015 J-0.0048
G3 X13.1464 Y1.8832 I0 J-0.005
G3 X13.145 Y1.8825 I0.0015 J-0.0048
G3 X13.1439 Y1.8814 I0.0029 J-0.004
G3 X13.1432 Y1.88 I0.004 J-0.0029
G3 X13.1429 Y1.8785 I0.0048 J-0.0015
G1 X13.1429 Y1.8785
G1 X13.1429 Y1.8785
G3 X13.1432 Y1.8769 I0.005 J0
G1 Z-0.4 F30
G3 X13.1439 Y1.8755 I0.0048 J0.0015 F10
G3 X13.145 Y1.8744 I0.004 J0.0029
G3 X13.1464 Y1.8737 I0.0029 J0.004
G3 X13.1479 Y1.8735 I0.0015 J0.0048
G3 X13.1495 Y1.8737 I0 J0.005
G3 X13.1509 Y1.8744 I-0.0015 J0.0048
G3 X13.152 Y1.8755 I-0.0029 J0.004
G3 X13.1527 Y1.8769 I-0.004 J0.0029
G3 X13.1529 Y1.8785 I-0.0048 J0.0015
G1 X13.1529 Y1.8785
G1 X13.1529 Y1.8785
G3 X13.1527 Y1.88 I-0.005 J0
G3 X13.152 Y1.8814 I-0.0048 J-0.0015
G3 X13.1509 Y1.8825 I-0.004 J-0.0029
G3 X13.1495 Y1.8832 I-0.0029 J-0.004
G3 X13.1479 Y1.8835 I-0.0015 J-0.0048
G3 X13.1464 Y1.8832 I0 J-0.005
G3 X13.145 Y1.8825 I0.0015 J-0.0048
G3 X13.1439 Y1.8814 I0.0029 J-0.004
G3 X13.1432 Y1.88 I0.004 J-0.0029
G3 X13.1429 Y1.8785 I0.0048 J-0.0015
G1 X13.1429 Y1.8785
G1 X13.1429 Y1.8785
G3 X13.1432 Y1.8769 I0.005 J0
G1 Z-0.5 F30
G3 X13.1439 Y1.8755 I0.0048 J0.0015 F10
G3 X13.145 Y1.8744 I0.004 J0.0029
G3 X13.1464 Y1.8737 I0.0029 J0.004
G3 X13.1479 Y1.8735 I0.0015 J0.0048
G3 X13.1495 Y1.8737 I0 J0.005
G3 X13.1509 Y1.8744 I-0.0015 J0.0048
G3 X13.152 Y1.8755 I-0.0029 J0.004
G3 X13.1527 Y1.8769 I-0.004 J0.0029
G3 X13.1529 Y1.8785 I-0.0048 J0.0015
G1 X13.1529 Y1.8785
G1 X13.1529 Y1.8785
G3 X13.1527 Y1.88 I-0.005 J0
G3 X13.152 Y1.8814 I-0.0048 J-0.0015
G3 X13.1509 Y1.8825 I-0.004 J-0.0029
G3 X13.1495 Y1.8832 I-0.0029 J-0.004
G3 X13.1479 Y1.8835 I-0.0015 J-0.0048
G3 X13.1464 Y1.8832 I0 J-0.005
G3 X13.145 Y1.8825 I0.0015 J-0.0048
G3 X13.1439 Y1.8814 I0.0029 J-0.004
G3 X13.1432 Y1.88 I0.004 J-0.0029
G3 X13.1429 Y1.8785 I0.0048 J-0.0015
G1 X13.1429 Y1.8785
G1 X13.1429 Y1.8785
G3 X13.1432 Y1.8769 I0.005 J0
G1 Z-0.6 F30
G3 X13.1439 Y1.8755 I0.0048 J0.0015 F10
G3 X13.145 Y1.8744 I0.004 J0.0029
G3 X13.1464 Y1.8737 I0.0029 J0.004
G3 X13.1479 Y1.8735 I0.0015 J0.0048
G3 X13.1495 Y1.8737 I0 J0.005
G3 X13.1509 Y1.8744 I-0.0015 J0.0048
G3 X13.152 Y1.8755 I-0.0029 J0.004
G3 X13.1527 Y1.8769 I-0.004 J0.0029
G3 X13.1529 Y1.8785 I-0.0048 J0.0015
G1 X13.1529 Y1.8785
G1 X13.1529 Y1.8785
G3 X13.1527 Y1.88 I-0.005 J0
G3 X13.152 Y1.8814 I-0.0048 J-0.0015
G3 X13.1509 Y1.8825 I-0.004 J-0.0029
G3 X13.1495 Y1.8832 I-0.0029 J-0.004
G3 X13.1479 Y1.8835 I-0.0015 J-0.0048
G3 X13.1464 Y1.8832 I0 J-0.005
G3 X13.145 Y1.8825 I0.0015 J-0.0048
G3 X13.1439 Y1.8814 I0.0029 J-0.004
G3 X13.1432 Y1.88 I0.004 J-0.0029
G3 X13.1429 Y1.8785 I0.0048 J-0.0015
G1 X13.1429 Y1.8785
G1 X13.1429 Y1.8785
G3 X13.1432 Y1.8769 I0.005 J0
G1 Z-0.7 F30
G3 X13.1439 Y1.8755 I0.0048 J0.0015 F10
G3 X13.145 Y1.8744 I0.004 J0.0029
G3 X13.1464 Y1.8737 I0.0029 J0.004
G3 X13.1479 Y1.8735 I0.0015 J0.0048
G3 X13.1495 Y1.8737 I0 J0.005
G3 X13.1509 Y1.8744 I-0.0015 J0.0048
G3 X13.152 Y1.8755 I-0.0029 J0.004
G3 X13.1527 Y1.8769 I-0.004 J0.0029
G3 X13.1529 Y1.8785 I-0.0048 J0.0015
G1 X13.1529 Y1.8785
G1 X13.1529 Y1.8785
G3 X13.1527 Y1.88 I-0.005 J0
G3 X13.152 Y1.8814 I-0.0048 J-0.0015
G3 X13.1509 Y1.8825 I-0.004 J-0.0029
G3 X13.1495 Y1.8832 I-0.0029 J-0.004
G3 X13.1479 Y1.8835 I-0.0015 J-0.0048
G3 X13.1464 Y1.8832 I0 J-0.005
G3 X13.145 Y1.8825 I0.0015 J-0.0048
G3 X13.1439 Y1.8814 I0.0029 J-0.004
G3 X13.1432 Y1.88 I0.004 J-0.0029
G3 X13.1429 Y1.8785 I0.0048 J-0.0015
G1 X13.1429 Y1.8785
G1 X13.1429 Y1.8785
G3 X13.1432 Y1.8769 I0.005 J0
G1 Z-0.8 F30
G3 X13.1439 Y1.8755 I0.0048 J0.0015 F10
G3 X13.145 Y1.8744 I0.004 J0.0029
G3 X13.1464 Y1.8737 I0.0029 J0.004
G3 X13.1479 Y1.8735 I0.0015 J0.0048
G3 X13.1495 Y1.8737 I0 J0.005
G3 X13.1509 Y1.8744 I-0.0015 J0.0048
G3 X13.152 Y1.8755 I-0.0029 J0.004
G3 X13.1527 Y1.8769 I-0.004 J0.0029
G3 X13.1529 Y1.8785 I-0.0048 J0.0015
G1 X13.1529 Y1.8785
G1 X13.1529 Y1.8785
G3 X13.1527 Y1.88 I-0.005 J0
G3 X13.152 Y1.8814 I-0.0048 J-0.0015
G3 X13.1509 Y1.8825 I-0.004 J-0.0029
G3 X13.1495 Y1.8832 I-0.0029 J-0.004
G3 X13.1479 Y1.8835 I-0.0015 J-0.0048
G3 X13.1464 Y1.8832 I0 J-0.005
G3 X13.145 Y1.8825 I0.0015 J-0.0048
G3 X13.1439 Y1.8814 I0.0029 J-0.004
G3 X13.1432 Y1.88 I0.004 J-0.0029
G3 X13.1429 Y1.8785 I0.0048 J-0.0015
G1 X13.1429 Y1.8785
G1 X13.1429 Y1.8785
G3 X13.1432 Y1.8769 I0.005 J0

(pocket 2)
G0 Z0.5
G0 X1.9281 Y5.2037
G1 Z-0.1 F30
G3 X1.9352 Y5.1898 I0.0476 J0.0155 F10
G3 X1.9462 Y5.1787 I0.0405 J0.0294
G3 X1.9602 Y5.1716 I0.0294 J0.0405
G3 X1.9756 Y5.1691 I0.0155 J0.0476
G3 X1.9911 Y5.1716 I0 J0.05
G3 X2.005 Y5.1787 I-0.0155 J0.0476
G3 X2.0161 Y5.1898 I-0.0294 J0.0405
G3 X2.0232 Y5.2037 I-0.0405 J0.0294
G3 X2.0256 Y5.2191 I-0.0476 J0.0155
G1 X2.0256 Y5.2191
G1 X2.0256 Y5.2191
G3 X2.0232 Y5.2346 I-0.05 J0
G3 X2.0161 Y5.2485 I-0.0476 J-0.0155
G3 X2.005 Y5.2596 I-0.0405 J-0.0294
G3 X1.9911 Y5.2667 I-0.0294 J-0.0405
G3 X1.9756 Y5.2691 I-0.0155 J-0.0476
G3 X1.9602 Y5.2667 I0 J-0.05
G3 X1.9462 Y5.2596 I0.0155 J-0.0476
G3 X1.9352 Y5.2485 I0.0294 J-0.0405
G3 X1.9281 Y5.2346 I0.0405 J-0.0294
G3 X1.9256 Y5.2191 I0.0476 J-0.0155
G1 X1.9256 Y5.2191
G1 X1.9256 Y5.2191
G3 X1.9281 Y5.2037 I0.05 J0
G1 X1.833 Y5.1728 F10
G3 X1.8543 Y5.131 I0.1427 J0.0464 F10
G3 X1.8875 Y5.0978 I0.1214 J0.0882
G3 X1.9293 Y5.0765 I0.0882 J0.1214
G3 X1.9756 Y5.0691 I0.0464 J0.1427
G3 X2.022 Y5.0765 I0 J0.15
G3 X2.0638 Y5.0978 I-0.0464 J0.1427
G3 X2.097 Y5.131 I-0.0882 J0.1214
G3 X2.1183 Y5.1728 I-0.1214 J0.0882
G3 X2.1256 Y5.2191 I-0.1427 J0.0464
G1 X2.1256 Y5.2191
G1 X2.1256 Y5.2191
G3 X2.1183 Y5.2655 I-0.15 J0
G3 X2.097 Y5.3073 I-0.1427 J-0.0464
G3 X2.0638 Y5.3405 I-0.1214 J-0.0882
G3 X2.022 Y5.3618 I-0.0882 J-0.1214
G3 X1.9756 Y5.3691 I-0.0464 J-0.1427
G3 X1.9293 Y5.3618 I0 J-0.15
G3 X1.8875 Y5.3405 I0.0464 J-0.1427
G3 X1.8543 Y5.3073 I0.0882 J-0.1214
G3 X1.833 Y5.2655 I0.1214 J-0.0882
G3 X1.8256 Y5.2191 I0.1427 J-0.0464
G1 X1.8256 Y5.2191
G1 X1.8256 Y5.2191
G3 X1.833 Y5.1728 I0.15 J0
G1 X1.7379 Y5.1419 F10
G3 X1.7734 Y5.0722 I0.2378 J0.0773 F10
G3 X1.8287 Y5.0169 I0.2023 J0.1469
G3 X1.8984 Y4.9814 I0.1469 J0.2023
G3 X1.9756 Y4.9691 I0.0773 J0.2378
G3 X2.0529 Y4.9814 I0 J0.25
G3 X2.1226 Y5.0169 I-0.0773 J0.2378
G3 X2.1779 Y5.0722 I-0.1469 J0.2023
G3 X2.2134 Y5.1419 I-0.2023 J0.1469
G3 X2.2256 Y5.2191 I-0.2378 J0.0773
G1 X2.2256 Y5.2191
G1 X2.2256 Y5.2191
G3 X2.2134 Y5.2964 I-0.25 J0
G3 X2.1779 Y5.3661 I-0.2378 J-0.0773
G3 X2.1226 Y5.4214 I-0.2023 J-0.1469
G3 X2.0529 Y5.4569 I-0.1469 J-0.2023
G3 X1.9756 Y5.4691 I-0.0773 J-0.2378
G3 X1.8984 Y5.4569 I0 J-0.25
G3 X1.8287 Y5.4214 I0.0773 J-0.2378
G3 X1.7734 Y5.3661 I0.1469 J-0.2023
G3 X1.7379 Y5.2964 I0.2023 J-0.1469
G3 X1.7256 Y5.2191 I0.2378 J-0.0773
G1 X1.7256 Y5.2191
G1 X1.7256 Y5.2191
G3 X1.7379 Y5.1419 I0.25 J0
G0 Z0.5
G0 X16.5386 Y5.2191
G1 Z-0.1 F30
G3 X16.5371 Y5.2345 I-0.0819 J0 F10
G3 X16.5359 Y5.2387 I-0.0214 J-0.0041
G3 X16.5338 Y5.2426 I-0.0201 J-0.0083
G3 X16.5239 Y5.2545 I-0.0677 J-0.046
G3 X16.5121 Y5.2643 I-0.0579 J-0.0579
G3 X16.5082 Y5.2664 I-0.0122 J-0.018
G3 X16.5039 Y5.2677 I-0.0083 J-0.0201
G3 X16.4886 Y5.2691 I-0.0153 J-0.0804
G3 X16.4732 Y5.2677 I0 J-0.0819
G3 X16.469 Y5.2664 I0.0041 J-0.0214
G3 X16.4651 Y5.2643 I0.0083 J-0.0201
G3 X16.4532 Y5.2545 I0.046 J-0.0677
G3 X16.4434 Y5.2426 I0.0579 J-0.0579
G3 X16.4413 Y5.2387 I0.018 J-0.0122
G3 X16.44 Y5.2345 I0.0201 J-0.0083
G3 X16.4386 Y5.2191 I0.0804 J-0.0153
G3 X16.44 Y5.2038 I0.0819 J0
G3 X16.4413 Y5.1996 I0.0214 J0.0041
G3 X16.4434 Y5.1957 I0.0201 J0.0083
G3 X16.4532 Y5.1838 I0.0677 J0.046
G3 X16.4651 Y5.174 I0.0579 J0.0579
G3 X16.469 Y5.1719 I0.0122 J0.018
G3 X16.4732 Y5.1706 I0.0083 J0.0201
G3 X16.4886 Y5.1691 I0.0153 J0.0804
G3 X16.5039 Y5.1706 I0 J0.0819
G3 X16.5082 Y5.1719 I-0.0041 J0.0214
G3 X16.5121 Y5.174 I-0.0083 J0.0201
G3 X16.5239 Y5.1838 I-0.046 J0.0677
G3 X16.5338 Y5.1957 I-0.0579 J0.0579
G3 X16.5359 Y5.1996 I-0.018 J0.0122
G3 X16.5371 Y5.2038 I-0.0201 J0.0083
G3 X16.5386 Y5.2191 I-0.0804 J0.0153
G1 X16.6386 Y5.2191 F10
G3 X16.6354 Y5.2532 I-0.1819 J0 F10
G3 X16.6282 Y5.277 I-0.1196 J-0.0228
G3 X16.6165 Y5.2988 I-0.1125 J-0.0466
G3 X16.5946 Y5.3252 I-0.1504 J-0.1022
G3 X16.5683 Y5.347 I-0.1286 J-0.1286
G3 X16.5464 Y5.3588 I-0.0684 J-0.1007
G3 X16.5227 Y5.3659 I-0.0466 J-0.1125
G3 X16.4886 Y5.3691 I-0.0341 J-0.1786
G3 X16.4545 Y5.3659 I0 J-0.1819
G3 X16.4307 Y5.3588 I0.0228 J-0.1196
G3 X16.4089 Y5.347 I0.0466 J-0.1125
G3 X16.3825 Y5.3252 I0.1022 J-0.1504
G3 X16.3607 Y5.2988 I0.1286 J-0.1286
G3 X16.3489 Y5.277 I0.1007 J-0.0684
G3 X16.3418 Y5.2532 I0.1125 J-0.0466
G3 X16.3386 Y5.2191 I0.1786 J-0.0341
G3 X16.3418 Y5.1851 I0.1819 J0
G3 X16.3489 Y5.1613 I0.1196 J0.0228
G3 X16.3607 Y5.1395 I0.1125 J0.0466
G3 X16.3825 Y5.1131 I0.1504 J0.1022
G3 X16.4089 Y5.0913 I0.1286 J0.1286
G3 X16.4307 Y5.0795 I0.0684 J0.1007
G3 X16.4545 Y5.0724 I0.0466 J0.1125
G3 X16.4886 Y5.0691 I0.0341 J0.1786
G3 X16.5227 Y5.0724 I0 J0.1819
G3 X16.5464 Y5.0795 I-0.0228 J0.1196
G3 X16.5683 Y5.0913 I-0.0466 J0.1125
G3 X16.5946 Y5.1131 I-0.1022 J0.1504
G3 X16.6165 Y5.1395 I-0.1286 J0.1286
G3 X16.6282 Y5.1613 I-0.1007 J0.0684
G3 X16.6354 Y5.1851 I-0.1125 J0.0466
G3 X16.6386 Y5.2191 I-0.1786 J0.0341
G1 X16.7386 Y5.2191 F10
G3 X16.7336 Y5.272 I-0.2819 J0 F10
G3 X16.7206 Y5.3153 I-0.2178 J-0.0415
G3 X16.6992 Y5.3551 I-0.2049 J-0.0849
G3 X16.6654 Y5.3959 I-0.2331 J-0.1584
G3 X16.6245 Y5.4297 I-0.1993 J-0.1993
G3 X16.5847 Y5.4512 I-0.1246 J-0.1834
G3 X16.5414 Y5.4642 I-0.0849 J-0.2049
G3 X16.4886 Y5.4691 I-0.0528 J-0.2769
G3 X16.4358 Y5.4642 I0 J-0.2819
G3 X16.3925 Y5.4512 I0.0415 J-0.2178
G3 X16.3527 Y5.4297 I0.0849 J-0.2049
G3 X16.3118 Y5.3959 I0.1584 J-0.2331
G3 X16.278 Y5.3551 I0.1993 J-0.1993
G3 X16.2565 Y5.3153 I0.1834 J-0.1246
G3 X16.2436 Y5.272 I0.2049 J-0.0849
G3 X16.2386 Y5.2191 I0.2769 J-0.0528
G3 X16.2436 Y5.1663 I0.2819 J0
G3 X16.2565 Y5.123 I0.2178 J0.0415
G3 X16.278 Y5.0832 I0.2049 J0.0849
G3 X16.3118 Y5.0424 I0.2331 J0.1584
G3 X16.3527 Y5.0086 I0.1993 J0.1993
G3 X16.3925 Y4.9871 I0.1246 J0.1834
G3 X16.4358 Y4.9741 I0.0849 J0.2049
G3 X16.4886 Y4.9691 I0.0528 J0.2769
G3 X16.5414 Y4.9741 I0 J0.2819
G3 X16.5847 Y4.9871 I-0.0415 J0.2178
G3 X16.6245 Y5.0086 I-0.0849 J0.2049
G3 X16.6654 Y5.0424 I-0.1584 J0.2331
G3 X16.6992 Y5.0832 I-0.1993 J0.1993
G3 X16.7206 Y5.123 I-0.1834 J0.1246
G3 X16.7336 Y5.1663 I-0.2049 J0.0849
G3 X16.7386 Y5.2191 I-0.2769 J0.0528
G0 Z0.5
G0 X13.1833 Y1.9138
G1 Z-0.1 F30
G3 X13.1714 Y1.9237 I-0.0579 J-0.0579 F10
G3 X13.1675 Y1.9258 I-0.0122 J-0.018
G3 X13.1633 Y1.927 I-0.0083 J-0.0201
G3 X13.1479 Y1.9285 I-0.0153 J-0.0804
G3 X13.1326 Y1.927 I0 J-0.0819
G3 X13.1283 Y1.9258 I0.0041 J-0.0214
G3 X13.1244 Y1.9237 I0.0083 J-0.0201
G3 X13.1126 Y1.9138 I0.046 J-0.0677
G3 X13.1027 Y1.902 I0.0579 J-0.0579
G3 X13.1006 Y1.8981 I0.018 J-0.0122
G3 X13.0994 Y1.8938 I0.0201 J-0.0083
G3 X13.0979 Y1.8785 I0.0804 J-0.0153
G3 X13.0994 Y1.8631 I0.0819 J0
G3 X13.1006 Y1.8589 I0.0214 J0.0041
G3 X13.1027 Y1.855 I0.0201 J0.0083
G3 X13.1126 Y1.8431 I0.0677 J0.046
G3 X13.1244 Y1.8333 I0.0579 J0.0579
G3 X13.1283 Y1.8312 I0.0122 J0.018
G3 X13.1326 Y1.8299 I0.0083 J0.0201
G3 X13.1479 Y1.8285 I0.0153 J0.0804
G3 X13.1633 Y1.8299 I0 J0.0819
G3 X13.1675 Y1.8312 I-0.0041 J0.0214
G3 X13.1714 Y1.8333 I-0.0083 J0.0201
G3 X13.1833 Y1.8431 I-0.046 J0.0677
G3 X13.1931 Y1.855 I-0.0579 J0.0579
G3 X13.1952 Y1.8589 I-0.018 J0.0122
G3 X13.1965 Y1.8631 I-0.0201 J0.0083
G3 X13.1979 Y1.8785 I-0.0804 J0.0153
G3 X13.1965 Y1.8938 I-0.0819 J0
G3 X13.1952 Y1.8981 I-0.0214 J-0.0041
G3 X13.1931 Y1.902 I-0.0201 J-0.0083
G3 X13.1833 Y1.9138 I-0.0677 J-0.046
G1 X13.254 Y1.9846 F10
G3 X13.2276 Y2.0064 I-0.1286 J-0.1286 F10
G3 X13.2058 Y2.0182 I-0.0684 J-0.1007
G3 X13.182 Y2.0253 I-0.0466 J-0.1125
G3 X13.1479 Y2.0285 I-0.0341 J-0.1786
G3 X13.1138 Y2.0253 I0 J-0.1819
G3 X13.0901 Y2.0182 I0.0228 J-0.1196
G3 X13.0682 Y2.0064 I0.0466 J-0.1125
G3 X13.0418 Y1.9846 I0.1022 J-0.1504
G3 X13.02 Y1.9582 I0.1286 J-0.1286
G3 X13.0082 Y1.9363 I0.1007 J-0.0684
G3 X13.0011 Y1.9126 I0.1125 J-0.0466
G3 X12.9979 Y1.8785 I0.1786 J-0.0341
G3 X13.0011 Y1.8444 I0.1819 J0
G3 X13.0082 Y1.8206 I0.1196 J0.0228
G3 X13.02 Y1.7988 I0.1125 J0.0466
G3 X13.0418 Y1.7724 I0.1504 J0.1022
G3 X13.0682 Y1.7506 I0.1286 J0.1286
G3 X13.0901 Y1.7388 I0.0684 J0.1007
G3 X13.1138 Y1.7317 I0.0466 J0.1125
G3 X13.1479 Y1.7285 I0.0341 J0.1786
G3 X13.182 Y1.7317 I0 J0.1819
G3 X13.2058 Y1.7388 I-0.0228 J0.1196
G3 X13.2276 Y1.7506 I-0.0466 J0.1125
G3 X13.254 Y1.7724 I-0.1022 J0.1504
G3 X13.2758 Y1.7988 I-0.1286 J0.1286
G3 X13.2876 Y1.8206 I-0.1007 J0.0684
G3 X13.2947 Y1.8444 I-0.1125 J0.0466
G3 X13.2979 Y1.8785 I-0.1786 J0.0341
G3 X13.2947 Y1.9126 I-0.1819 J0
G3 X13.2876 Y1.9363 I-0.1196 J-0.0228
G3 X13.2758 Y1.9582 I-0.1125 J-0.0466
G3 X13.254 Y1.9846 I-0.1504 J-0.1022
G1 X13.3247 Y2.0553 F10
G3 X13.2838 Y2.0891 I-0.1993 J-0.1993 F10
G3 X13.244 Y2.1105 I-0.1246 J-0.1834
G3 X13.2007 Y2.1235 I-0.0849 J-0.2049
G3 X13.1479 Y2.1285 I-0.0528 J-0.2769
G3 X13.0951 Y2.1235 I0 J-0.2819
G3 X13.0518 Y2.1105 I0.0415 J-0.2178
G3 X13.012 Y2.0891 I0.0849 J-0.2049
G3 X12.9711 Y2.0553 I0.1584 J-0.2331
G3 X12.9373 Y2.0144 I0.1993 J-0.1993
G3 X12.9159 Y1.9746 I0.1834 J-0.1246
G3 X12.9029 Y1.9313 I0.2049 J-0.0849
G3 X12.8979 Y1.8785 I0.2769 J-0.0528
G3 X12.9029 Y1.8257 I0.2819 J0
G3 X12.9159 Y1.7824 I0.2178 J0.0415
G3 X12.9373 Y1.7426 I0.2049 J0.0849
G3 X12.9711 Y1.7017 I0.2331 J0.1584
G3 X13.012 Y1.6679 I0.1993 J0.1993
G3 X13.0518 Y1.6464 I0.1246 J0.1834
G3 X13.0951 Y1.6335 I0.0849 J0.2049
G3 X13.1479 Y1.6285 I0.0528 J0.2769
G3 X13.2007 Y1.6335 I0 J0.2819
G3 X13.244 Y1.6464 I-0.0415 J0.2178
G3 X13.2838 Y1.6679 I-0.0849 J0.2049
G3 X13.3247 Y1.7017 I-0.1584 J0.2331
G3 X13.3585 Y1.7426 I-0.1993 J0.1993
G3 X13.38 Y1.7824 I-0.1834 J0.1246
G3 X13.3929 Y1.8257 I-0.2049 J0.0849
G3 X13.3979 Y1.8785 I-0.2769 J0.0528
G3 X13.3929 Y1.9313 I-0.2819 J0
G3 X13.38 Y1.9746 I-0.2178 J-0.0415
G3 X13.3585 Y2.0144 I-0.2049 J-0.0849
G3 X13.3247 Y2.0553 I-0.2331 J-0.1584
G0 Z0.5
G0 X5.3516 Y1.9138
G1 Z-0.1 F30
G3 X5.3398 Y1.9237 I-0.0579 J-0.0579 F10
G3 X5.3359 Y1.9258 I-0.0122 J-0.018
G3 X5.3316 Y1.927 I-0.0083 J-0.0201
G3 X5.3163 Y1.9285 I-0.0153 J-0.0804
G3 X5.301 Y1.927 I0 J-0.0819
G3 X5.2967 Y1.9258 I0.0041 J-0.0214
G3 X5.2928 Y1.9237 I0.0083 J-0.0201
G3 X5.2809 Y1.9138 I0.046 J-0.0677
G3 X5.2711 Y1.902 I0.0579 J-0.0579
G3 X5.269 Y1.8981 I0.018 J-0.0122
G3 X5.2677 Y1.8938 I0.0201 J-0.0083
G3 X5.2663 Y1.8785 I0.0804 J-0.0153
G3 X5.2677 Y1.8631 I0.0819 J0
G3 X5.269 Y1.8589 I0.0214 J0.0041
G3 X5.2711 Y1.855 I0.0201 J0.0083
G3 X5.2809 Y1.8431 I0.0677 J0.046
G3 X5.2928 Y1.8333 I0.0579 J0.0579
G3 X5.2967 Y1.8312 I0.0122 J0.018
G3 X5.301 Y1.8299 I0.0083 J0.0201
G3 X5.3163 Y1.8285 I0.0153 J0.0804
G3 X5.3316 Y1.8299 I0 J0.0819
G3 X5.3359 Y1.8312 I-0.0041 J0.0214
G3 X5.3398 Y1.8333 I-0.0083 J0.0201
G3 X5.3516 Y1.8431 I-0.046 J0.0677
G3 X5.3615 Y1.855 I-0.0579 J0.0579
G3 X5.3636 Y1.8589 I-0.018 J0.0122
G3 X5.3648 Y1.8631 I-0.0201 J0.0083
G3 X5.3663 Y1.8785 I-0.0804 J0.0153
G3 X5.3648 Y1.8938 I-0.0819 J0
G3 X5.3636 Y1.8981 I-0.0214 J-0.0041
G3 X5.3615 Y1.902 I-0.0201 J-0.0083
G3 X5.3516 Y1.9138 I-0.0677 J-0.046
G1 X5.4224 Y1.9846 F10
G3 X5.396 Y2.0064 I-0.1286 J-0.1286 F10
G3 X5.3741 Y2.0182 I-0.0684 J-0.1007
G3 X5.3504 Y2.0253 I-0.0466 J-0.1125
G3 X5.3163 Y2.0285 I-0.0341 J-0.1786
G3 X5.2822 Y2.0253 I0 J-0.1819
G3 X5.2584 Y2.0182 I0.0228 J-0.1196
G3 X5.2366 Y2.0064 I0.0466 J-0.1125
G3 X5.2102 Y1.9846 I0.1022 J-0.1504
G3 X5.1884 Y1.9582 I0.1286 J-0.1286
G3 X5.1766 Y1.9363 I0.1007 J-0.0684
G3 X5.1695 Y1.9126 I0.1125 J-0.0466
G3 X5.1663 Y1.8785 I0.1786 J-0.0341
G3 X5.1695 Y1.8444 I0.1819 J0
G3 X5.1766 Y1.8206 I0.1196 J0.0228
G3 X5.1884 Y1.7988 I0.1125 J0.0466
G3 X5.2102 Y1.7724 I0.1504 J0.1022
G3 X5.2366 Y1.7506 I0.1286 J0.1286
G3 X5.2584 Y1.7388 I0.0684 J0.1007
G3 X5.2822 Y1.7317 I0.0466 J0.1125
G3 X5.3163 Y1.7285 I0.0341 J0.1786
G3 X5.3504 Y1.7317 I0 J0.1819
G3 X5.3741 Y1.7388 I-0.0228 J0.1196
G3 X5.396 Y1.7506 I-0.0466 J0.1125
G3 X5.4224 Y1.7724 I-0.1022 J0.1504
G3 X5.4442 Y1.7988 I-0.1286 J0.1286
G3 X5.456 Y1.8206 I-0.1007 J0.0684
G3 X5.4631 Y1.8444 I-0.1125 J0.0466
G3 X5.4663 Y1.8785 I-0.1786 J0.0341
G3 X5.4631 Y1.9126 I-0.1819 J0
G3 X5.456 Y1.9363 I-0.1196 J-0.0228
G3 X5.4442 Y1.9582 I-0.1125 J-0.0466
G3 X5.4224 Y1.9846 I-0.1504 J-0.1022
G1 X5.4931 Y2.0553 F10
G3 X5.4522 Y2.0891 I-0.1993 J-0.1993 F10
G3 X5.4124 Y2.1105 I-0.1246 J-0.1834
G3 X5.3691 Y2.1235 I-0.0849 J-0.2049
G3 X5.3163 Y2.1285 I-0.0528 J-0.2769
G3 X5.2635 Y2.1235 I0 J-0.2819
G3 X5.2202 Y2.1105 I0.0415 J-0.2178
G3 X5.1804 Y2.0891 I0.0849 J-0.2049
G3 X5.1395 Y2.0553 I0.1584 J-0.2331
G3 X5.1057 Y2.0144 I0.1993 J-0.1993
G3 X5.0842 Y1.9746 I0.1834 J-0.1246
G3 X5.0713 Y1.9313 I0.2049 J-0.0849
G3 X5.0663 Y1.8785 I0.2769 J-0.0528
G3 X5.0713 Y1.8257 I0.2819 J0
G3 X5.0842 Y1.7824 I0.2178 J0.0415
G3 X5.1057 Y1.7426 I0.2049 J0.0849
G3 X5.1395 Y1.7017 I0.2331 J0.1584
G3 X5.1804 Y1.6679 I0.1993 J0.1993
G3 X5.2202 Y1.6464 I0.1246 J0.1834
G3 X5.2635 Y1.6335 I0.0849 J0.2049
G3 X5.3163 Y1.6285 I0.0528 J0.2769
G3 X5.3691 Y1.6335 I0 J0.2819
G3 X5.4124 Y1.6464 I-0.0415 J0.2178
G3 X5.4522 Y1.6679 I-0.0849 J0.2049
G3 X5.4931 Y1.7017 I-0.1584 J0.2331
G3 X5.5269 Y1.7426 I-0.1993 J0.1993
G3 X5.5483 Y1.7824 I-0.1834 J0.1246
G3 X5.5613 Y1.8257 I-0.2049 J0.0849
G3 X5.5663 Y1.8785 I-0.2769 J0.0528
G3 X5.5613 Y1.9313 I-0.2819 J0
G3 X5.5483 Y1.9746 I-0.2178 J-0.0415
G3 X5.5269 Y2.0144 I-0.2049 J-0.0849
G3 X5.4931 Y2.0553 I-0.2331 J-0.1584
G0 Z0.5
G0 X1.9281 Y5.2037
G1 Z-0.2 F30
G3 X1.9352 Y5.1898 I0.0476 J0.0155 F10
G3 X1.9462 Y5.1787 I0.0405 J0.0294
G3 X1.9602 Y5.1716 I0.0294 J0.0405
G3 X1.9756 Y5.1691 I0.0155 J0.0476
G3 X1.9911 Y5.1716 I0 J0.05
G3 X2.005 Y5.1787 I-0.0155 J0.0476
G3 X2.0161 Y5.1898 I-0.0294 J0.0405
G3 X2.0232 Y5.2037 I-0.0405 J0.0294
G3 X2.0256 Y5.2191 I-0.0476 J0.0155
G1 X2.0256 Y5.2191
G1 X2.0256 Y5.2191
G3 X2.0232 Y5.2346 I-0.05 J0
G3 X2.0161 Y5.2485 I-0.0476 J-0.0155
G3 X2.005 Y5.2596 I-0.0405 J-0.0294
G3 X1.9911 Y5.2667 I-0.0294 J-0.0405
G3 X1.9756 Y5.2691 I-0.0155 J-0.0476
G3 X1.9602 Y5.2667 I0 J-0.05
G3 X1.9462 Y5.2596 I0.0155 J-0.0476
G3 X1.9352 Y5.2485 I0.0294 J-0.0405
G3 X1.9281 Y5.2346 I0.0405 J-0.0294
G3 X1.9256 Y5.2191 I0.0476 J-0.0155
G1 X1.9256 Y5.2191
G1 X1.9256 Y5.2191
G3 X1.9281 Y5.2037 I0.05 J0
G1 X1.833 Y5.1728 F10
G3 X1.8543 Y5.131 I0.1427 J0.0464 F10
G3 X1.8875 Y5.0978 I0.1214 J0.0882
G3 X1.9293 Y5.0765 I0.0882 J0.1214
G3 X1.9756 Y5.0691 I0.0464 J0.1427
G3 X2.022 Y5.0765 I0 J0.15
G3 X2.0638 Y5.0978 I-0.0464 J0.1427
G3 X2.097 Y5.131 I-0.0882 J0.1214
G3 X2.1183 Y5.1728 I-0.1214 J0.0882
G3 X2.1256 Y5.2191 I-0.1427 J0.0464
G1 X2.1256 Y5.2191
G1 X2.1256 Y5.2191
G3 X2.1183 Y5.2655 I-0.15 J0
G3 X2.097 Y5.3073 I-0.1427 J-0.0464
G3 X2.0638 Y5.3405 I-0.1214 J-0.0882
G3 X2.022 Y5.3618 I-0.0882 J-0.1214
G3 X1.9756 Y5.3691 I-0.0464 J-0.1427
G3 X1.9293 Y5.3618 I0 J-0.15
G3 X1.8875 Y5.3405 I0.0464 J-0.1427
G3 X1.8543 Y5.3073 I0.0882 J-0.1214
G3 X1.833 Y5.2655 I0.1214 J-0.0882
G3 X1.8256 Y5.2191 I0.1427 J-0.0464
G1 X1.8256 Y5.2191
G1 X1.8256 Y5.2191
G3 X1.833 Y5.1728 I0.15 J0
G1 X1.7379 Y5.1419 F10
G3 X1.7734 Y5.0722 I0.2378 J0.0773 F10
G3 X1.8287 Y5.0169 I0.2023 J0.1469
G3 X1.8984 Y4.9814 I0.1469 J0.2023
G3 X1.9756 Y4.9691 I0.0773 J0.2378
G3 X2.0529 Y4.9814 I0 J0.25
G3 X2.1226 Y5.0169 I-0.0773 J0.2378
G3 X2.1779 Y5.0722 I-0.1469 J0.2023
G3 X2.2134 Y5.1419 I-0.2023 J0.1469
G3 X2.2256 Y5.2191 I-0.2378 J0.0773
G1 X2.2256 Y5.2191
G1 X2.2256 Y5.2191
G3 X2.2134 Y5.2964 I-0.25 J0
G3 X2.1779 Y5.3661 I-0.2378 J-0.0773
G3 X2.1226 Y5.4214 I-0.2023 J-0.1469
G3 X2.0529 Y5.4569 I-0.1469 J-0.2023
G3 X1.9756 Y5.4691 I-0.0773 J-0.2378
G3 X1.8984 Y5.4569 I0 J-0.25
G3 X1.8287 Y5.4214 I0.0773 J-0.2378
G3 X1.7734 Y5.3661 I0.1469 J-0.2023
G3 X1.7379 Y5.2964 I0.2023 J-0.1469
G3 X1.7256 Y5.2191 I0.2378 J-0.0773
G1 X1.7256 Y5.2191
G1 X1.7256 Y5.2191
G3 X1.7379 Y5.1419 I0.25 J0
G0 Z0.5
G0 X16.5386 Y5.2191
G1 Z-0.2 F30
G3 X16.5371 Y5.2345 I-0.0819 J0 F10
G3 X16.5359 Y5.2387 I-0.0214 J-0.0041
G3 X16.5338 Y5.2426 I-0.0201 J-0.0083
G3 X16.5239 Y5.2545 I-0.0677 J-0.046
G3 X16.5121 Y5.2643 I-0.0579 J-0.0579
G3 X16.5082 Y5.2664 I-0.0122 J-0.018
G3 X16.5039 Y5.2677 I-0.0083 J-0.0201
G3 X16.4886 Y5.2691 I-0.0153 J-0.0804
G3 X16.4732 Y5.2677 I0 J-0.0819
G3 X16.469 Y5.2664 I0.0041 J-0.0214
G3 X16.4651 Y5.2643 I0.0083 J-0.0201
G3 X16.4532 Y5.2545 I0.046 J-0.0677
G3 X16.4434 Y5.2426 I0.0579 J-0.0579
G3 X16.4413 Y5.2387 I0.018 J-0.0122
G3 X16.44 Y5.2345 I0.0201 J-0.0083
G3 X16.4386 Y5.2191 I0.0804 J-0.0153
G3 X16.44 Y5.2038 I0.0819 J0
G3 X16.4413 Y5.1996 I0.0214 J0.0041
G3 X16.4434 Y5.1957 I0.0201 J0.0083
G3 X16.4532 Y5.1838 I0.0677 J0.046
G3 X16.4651 Y5.174 I0.0579 J0.0579
G3 X16.469 Y5.1719 I0.0122 J0.018
G3 X16.4732 Y5.1706 I0.0083 J0.0201
G3 X16.4886 Y5.1691 I0.0153 J0.0804
G3 X16.5039 Y5.1706 I0 J0.0819
G3 X16.5082 Y5.1719 I-0.0041 J0.0214
G3 X16.5121 Y5.174 I-0.0083 J0.0201
G3 X16.5239 Y5.1838 I-0.046 J0.0677
G3 X16.5338 Y5.1957 I-0.0579 J0.0579
G3 X16.5359 Y5.1996 I-0.018 J0.0122
G3 X16.5371 Y5.2038 I-0.0201 J0.0083
G3 X16.5386 Y5.2191 I-0.0804 J0.0153
G1 X16.6386 Y5.2191 F10
G3 X16.6354 Y5.2532 I-0.1819 J0 F10
G3 X16.6282 Y5.277 I-0.1196 J-0.0228
G3 X16.6165 Y5.2988 I-0.1125 J-0.0466
G3 X16.5946 Y5.3252 I-0.1504 J-0.1022
G3 X16.5683 Y5.347 I-0.1286 J-0.1286
G3 X16.5464 Y5.3588 I-0.0684 J-0.1007
G3 X16.5227 Y5.3659 I-0.0466 J-0.1125
G3 X16.4886 Y5.3691 I-0.0341 J-0.1786
G3 X16.4545 Y5.3659 I0 J-0.1819
G3 X16.4307 Y5.3588 I0.0228 J-0.1196
G3 X16.4089 Y5.347 I0.0466 J-0.1125
G3 X16.3825 Y5.3252 I0.1022 J-0.1504
G3 X16.3607 Y5.2988 I0.1286 J-0.1286
G3 X16.3489 Y5.277 I0.1007 J-0.0684
G3 X16.3418 Y5.2532 I0.1125 J-0.0466
G3 X16.3386 Y5.2191 I0.1786 J-0.0341
G3 X16.3418 Y5.1851 I0.1819 J0
G3 X16.3489 Y5.1613 I0.1196 J0.0228
G3 X16.3607 Y5.1395 I0.1125 J0.0466
G3 X16.3825 Y5.1131 I0.1504 J0.1022
G3 X16.4089 Y5.0913 I0.1286 J0.1286
G3 X16.4307 Y5.0795 I0.0684 J0.1007
G3 X16.4545 Y5.0724 I0.0466 J0.1125
G3 X16.4886 Y5.0691 I0.0341 J0.1786
G3 X16.5227 Y5.0724 I0 J0.1819
G3 X16.5464 Y5.0795 I-0.0228 J0.1196
G3 X16.5683 Y5.0913 I-0.0466 J0.1125
G3 X16.5946 Y5.1131 I-0.1022 J0.1504
G3 X16.6165 Y5.1395 I-0.1286 J0.1286
G3 X16.6282 Y5.1613 I-0.1007 J0.0684
G3 X16.6354 Y5.1851 I-0.1125 J0.0466
G3 X16.6386 Y5.2191 I-0.1786 J0.0341
G1 X16.7386 Y5.2191 F10
G3 X16.7336 Y5.272 I-0.2819 J0 F10
G3 X16.7206 Y5.3153 I-0.2178 J-0.0415
G3 X16.6992 Y5.3551 I-0.2049 J-0.0849
G3 X16.6654 Y5.3959 I-0.2331 J-0.1584
G3 X16.6245 Y5.4297 I-0.1993 J-0.1993
G3 X16.5847 Y5.4512 I-0.1246 J-0.1834
G3 X16.5414 Y5.4642 I-0.0849 J-0.2049
G3 X16.4886 Y5.4691 I-0.0528 J-0.2769
G3 X16.4358 Y5.4642 I0 J-0.2819
G3 X16.3925 Y5.4512 I0.0415 J-0.2178
G3 X16.3527 Y5.4297 I0.0849 J-0.2049
G3 X16.3118 Y5.3959 I0.1584 J-0.2331
G3 X16.278 Y5.3551 I0.1993 J-0.1993
G3 X16.2565 Y5.3153 I0.1834 J-0.1246
G3 X16.2436 Y5.272 I0.2049 J-0.0849
G3 X16.2386 Y5.2191 I0.2769 J-0.0528
G3 X16.2436 Y5.1663 I0.2819 J0
G3 X16.2565 Y5.123 I0.2178 J0.0415
G3 X16.278 Y5.0832 I0.2049 J0.0849
G3 X16.3118 Y5.0424 I0.2331 J0.1584
G3 X16.3527 Y5.0086 I0.1993 J0.1993
G3 X16.3925 Y4.9871 I0.1246 J0.1834
G3 X16.4358 Y4.9741 I0.0849 J0.2049
G3 X16.4886 Y4.9691 I0.0528 J0.2769
G3 X16.5414 Y4.9741 I0 J0.2819
G3 X16.5847 Y4.9871 I-0.0415 J0.2178
G3 X16.6245 Y5.0086 I-0.0849 J0.2049
G3 X16.6654 Y5.0424 I-0.1584 J0.2331
G3 X16.6992 Y5.0832 I-0.1993 J0.1993
G3 X16.7206 Y5.123 I-0.1834 J0.1246
G3 X16.7336 Y5.1663 I-0.2049 J0.0849
G3 X16.7386 Y5.2191 I-0.2769 J0.0528
G0 Z0.5
G0 X13.1833 Y1.9138
G1 Z-0.2 F30
G3 X13.1714 Y1.9237 I-0.0579 J-0.0579 F10
G3 X13.1675 Y1.9258 I-0.0122 J-0.018
G3 X13.1633 Y1.927 I-0.0083 J-0.0201
G3 X13.1479 Y1.9285 I-0.0153 J-0.0804
G3 X13.1326 Y1.927 I0 J-0.0819
G3 X13.1283 Y1.9258 I0.0041 J-0.0214
G3 X13.1244 Y1.9237 I0.0083 J-0.0201
G3 X13.1126 Y1.9138 I0.046 J-0.0677
G3 X13.1027 Y1.902 I0.0579 J-0.0579
G3 X13.1006 Y1.8981 I0.018 J-0.0122
G3 X13.0994 Y1.8938 I0.0201 J-0.0083
G3 X13.0979 Y1.8785 I0.0804 J-0.0153
G3 X13.0994 Y1.8631 I0.0819 J0
G3 X13.1006 Y1.8589 I0.0214 J0.0041
G3 X13.1027 Y1.855 I0.0201 J0.0083
G3 X13.1126 Y1.8431 I0.0677 J0.046
G3 X13.1244 Y1.8333 I0.0579 J0.0579
G3 X13.1283 Y1.8312 I0.0122 J0.018
G3 X13.1326 Y1.8299 I0.0083 J0.0201
G3 X13.1479 Y1.8285 I0.0153 J0.0804
G3 X13.1633 Y1.8299 I0 J0.0819
G3 X13.1675 Y1.8312 I-0.0041 J0.0214
G3 X13.1714 Y1.8333 I-0.0083 J0.0201
G3 X13.1833 Y1.8431 I-0.046 J0.0677
G3 X13.1931 Y1.855 I-0.0579 J0.0579
G3 X13.1952 Y1.8589 I-0.018 J0.0122
G3 X13.1965 Y1.8631 I-0.0201 J0.0083
G3 X13.1979 Y1.8785 I-0.0804 J0.0153
G3 X13.1965 Y1.8938 I-0.0819 J0
G3 X13.1952 Y1.8981 I-0.0214 J-0.0041
G3 X13.1931 Y1.902 I-0.0201 J-0.0083
G3 X13.1833 Y1.9138 I-0.0677 J-0.046
G1 X13.254 Y1.9846 F10
G3 X13.2276 Y2.0064 I-0.1286 J-0.1286 F10
G3 X13.2058 Y2.0182 I-0.0684 J-0.1007
G3 X13.182 Y2.0253 I-0.0466 J-0.1125
G3 X13.1479 Y2.0285 I-0.0341 J-0.1786
G3 X13.1138 Y2.0253 I0 J-0.1819
G3 X13.0901 Y2.0182 I0.0228 J-0.1196
G3 X13.0682 Y2.0064 I0.0466 J-0.1125
G3 X13.0418 Y1.9846 I0.1022 J-0.1504
G3 X13.02 Y1.9582 I0.1286 J-0.1286
G3 X13.0082 Y1.9363 I0.1007 J-0.0684
G3 X13.0011 Y1.9126 I0.1125 J-0.0466
G3 X12.9979 Y1.8785 I0.1786 J-0.0341
G3 X13.0011 Y1.8444 I0.1819 J0
G3 X13.0082 Y1.8206 I0.1196 J0.0228
G3 X13.02 Y1.7988 I0.1125 J0.0466
G3 X13.0418 Y1.7724 I0.1504 J0.1022
G3 X13.0682 Y1.7506 I0.1286 J0.1286
G3 X13.0901 Y1.7388 I0.0684 J0.1007
G3 X13.1138 Y1.7317 I0.0466 J0.1125
G3 X13.1479 Y1.7285 I0.0341 J0.1786
G3 X13.182 Y1.7317 I0 J0.1819
G3 X13.2058 Y1.7388 I-0.0228 J0.1196
G3 X13.2276 Y1.7506 I-0.0466 J0.1125
G3 X13.254 Y1.7724 I-0.1022 J0.1504
G3 X13.2758 Y1.7988 I-0.1286 J0.1286
G3 X13.2876 Y1.8206 I-0.1007 J0.0684
G3 X13.2947 Y1.8444 I-0.1125 J0.0466
G3 X13.2979 Y1.8785 I-0.1786 J0.0341
G3 X13.2947 Y1.9126 I-0.1819 J0
G3 X13.2876 Y1.9363 I-0.1196 J-0.0228
G3 X13.2758 Y1.9582 I-0.1125 J-0.0466
G3 X13.254 Y1.9846 I-0.1504 J-0.1022
G1 X13.3247 Y2.0553 F10
G3 X13.2838 Y2.0891 I-0.1993 J-0.1993 F10
G3 X13.244 Y2.1105 I-0.1246 J-0.1834
G3 X13.2007 Y2.1235 I-0.0849 J-0.2049
G3 X13.1479 Y2.1285 I-0.0528 J-0.2769
G3 X13.0951 Y2.1235 I0 J-0.2819
G3 X13.0518 Y2.1105 I0.0415 J-0.2178
G3 X13.012 Y2.0891 I0.0849 J-0.2049
G3 X12.9711 Y2.0553 I0.1584 J-0.2331
G3 X12.9373 Y2.0144 I0.1993 J-0.1993
G3 X12.9159 Y1.9746 I0.1834 J-0.1246
G3 X12.9029 Y1.9313 I0.2049 J-0.0849
G3 X12.8979 Y1.8785 I0.2769 J-0.0528
G3 X12.9029 Y1.8257 I0.2819 J0
G3 X12.9159 Y1.7824 I0.2178 J0.0415
G3 X12.9373 Y1.7426 I0.2049 J0.0849
G3 X12.9711 Y1.7017 I0.2331 J0.1584
G3 X13.012 Y1.6679 I0.1993 J0.1993
G3 X13.0518 Y1.6464 I0.1246 J0.1834
G3 X13.0951 Y1.6335 I0.0849 J0.2049
G3 X13.1479 Y1.6285 I0.0528 J0.2769
G3 X13.2007 Y1.6335 I0 J0.2819
G3 X13.244 Y1.6464 I-0.0415 J0.2178
G3 X13.2838 Y1.6679 I-0.0849 J0.2049
G3 X13.3247 Y1.7017 I-0.1584 J0.2331
G3 X13.3585 Y1.7426 I-0.1993 J0.1993
G3 X13.38 Y1.7824 I-0.1834 J0.1246
G3 X13.3929 Y1.8257 I-0.2049 J0.0849
G3 X13.3979 Y1.8785 I-0.2769 J0.0528
G3 X13.3929 Y1.9313 I-0.2819 J0
G3 X13.38 Y1.9746 I-0.2178 J-0.0415
G3 X13.3585 Y2.0144 I-0.2049 J-0.0849
G3 X13.3247 Y2.0553 I-0.2331 J-0.1584
G0 Z0.5
G0 X5.3516 Y1.9138
G1 Z-0.2 F30
G3 X5.3398 Y1.9237 I-0.0579 J-0.0579 F10
G3 X5.3359 Y1.9258 I-0.0122 J-0.018
G3 X5.3316 Y1.927 I-0.0083 J-0.0201
G3 X5.3163 Y1.9285 I-0.0153 J-0.0804
G3 X5.301 Y1.927 I0 J-0.0819
G3 X5.2967 Y1.9258 I0.0041 J-0.0214
G3 X5.2928 Y1.9237 I0.0083 J-0.0201
G3 X5.2809 Y1.9138 I0.046 J-0.0677
G3 X5.2711 Y1.902 I0.0579 J-0.0579
G3 X5.269 Y1.8981 I0.018 J-0.0122
G3 X5.2677 Y1.8938 I0.0201 J-0.0083
G3 X5.2663 Y1.8785 I0.0804 J-0.0153
G3 X5.2677 Y1.8631 I0.0819 J0
G3 X5.269 Y1.8589 I0.0214 J0.0041
G3 X5.2711 Y1.855 I0.0201 J0.0083
G3 X5.2809 Y1.8431 I0.0677 J0.046
G3 X5.2928 Y1.8333 I0.0579 J0.0579
G3 X5.2967 Y1.8312 I0.0122 J0.018
G3 X5.301 Y1.8299 I0.0083 J0.0201
G3 X5.3163 Y1.8285 I0.0153 J0.0804
G3 X5.3316 Y1.8299 I0 J0.0819
G3 X5.3359 Y1.8312 I-0.0041 J0.0214
G3 X5.3398 Y1.8333 I-0.0083 J0.0201
G3 X5.3516 Y1.8431 I-0.046 J0.0677
G3 X5.3615 Y1.855 I-0.0579 J0.0579
G3 X5.3636 Y1.8589 I-0.018 J0.0122
G3 X5.3648 Y1.8631 I-0.0201 J0.0083
G3 X5.3663 Y1.8785 I-0.0804 J0.0153
G3 X5.3648 Y1.8938 I-0.0819 J0
G3 X5.3636 Y1.8981 I-0.0214 J-0.0041
G3 X5.3615 Y1.902 I-0.0201 J-0.0083
G3 X5.3516 Y1.9138 I-0.0677 J-0.046
G1 X5.4224 Y1.9846 F10
G3 X5.396 Y2.0064 I-0.1286 J-0.1286 F10
G3 X5.3741 Y2.0182 I-0.0684 J-0.1007
G3 X5.3504 Y2.0253 I-0.0466 J-0.1125
G3 X5.3163 Y2.0285 I-0.0341 J-0.1786
G3 X5.2822 Y2.0253 I0 J-0.1819
G3 X5.2584 Y2.0182 I0.0228 J-0.1196
G3 X5.2366 Y2.0064 I0.0466 J-0.1125
G3 X5.2102 Y1.9846 I0.1022 J-0.1504
G3 X5.1884 Y1.9582 I0.1286 J-0.1286
G3 X5.1766 Y1.9363 I0.1007 J-0.0684
G3 X5.1695 Y1.9126 I0.1125 J-0.0466
G3 X5.1663 Y1.8785 I0.1786 J-0.0341
G3 X5.1695 Y1.8444 I0.1819 J0
G3 X5.1766 Y1.8206 I0.1196 J0.0228
G3 X5.1884 Y1.7988 I0.1125 J0.0466
G3 X5.2102 Y1.7724 I0.1504 J0.1022
G3 X5.2366 Y1.7506 I0.1286 J0.1286
G3 X5.2584 Y1.7388 I0.0684 J0.1007
G3 X5.2822 Y1.7317 I0.0466 J0.1125
G3 X5.3163 Y1.7285 I0.0341 J0.1786
G3 X5.3504 Y1.7317 I0 J0.1819
G3 X5.3741 Y1.7388 I-0.0228 J0.1196
G3 X5.396 Y1.7506 I-0.0466 J0.1125
G3 X5.4224 Y1.7724 I-0.1022 J0.1504
G3 X5.4442 Y1.7988 I-0.1286 J0.1286
G3 X5.456 Y1.8206 I-0.1007 J0.0684
G3 X5.4631 Y1.8444 I-0.1125 J0.0466
G3 X5.4663 Y1.8785 I-0.1786 J0.0341
G3 X5.4631 Y1.9126 I-0.1819 J0
G3 X5.456 Y1.9363 I-0.1196 J-0.0228
G3 X5.4442 Y1.9582 I-0.1125 J-0.0466
G3 X5.4224 Y1.9846 I-0.1504 J-0.1022
G1 X5.4931 Y2.0553 F10
G3 X5.4522 Y2.0891 I-0.1993 J-0.1993 F10
G3 X5.4124 Y2.1105 I-0.1246 J-0.1834
G3 X5.3691 Y2.1235 I-0.0849 J-0.2049
G3 X5.3163 Y2.1285 I-0.0528 J-0.2769
G3 X5.2635 Y2.1235 I0 J-0.2819
G3 X5.2202 Y2.1105 I0.0415 J-0.2178
G3 X5.1804 Y2.0891 I0.0849 J-0.2049
G3 X5.1395 Y2.0553 I0.1584 J-0.2331
G3 X5.1057 Y2.0144 I0.1993 J-0.1993
G3 X5.0842 Y1.9746 I0.1834 J-0.1246
G3 X5.0713 Y1.9313 I0.2049 J-0.0849
G3 X5.0663 Y1.8785 I0.2769 J-0.0528
G3 X5.0713 Y1.8257 I0.2819 J0
G3 X5.0842 Y1.7824 I0.2178 J0.0415
G3 X5.1057 Y1.7426 I0.2049 J0.0849
G3 X5.1395 Y1.7017 I0.2331 J0.1584
G3 X5.1804 Y1.6679 I0.1993 J0.1993
G3 X5.2202 Y1.6464 I0.1246 J0.1834
G3 X5.2635 Y1.6335 I0.0849 J0.2049
G3 X5.3163 Y1.6285 I0.0528 J0.2769
G3 X5.3691 Y1.6335 I0 J0.2819
G3 X5.4124 Y1.6464 I-0.0415 J0.2178
G3 X5.4522 Y1.6679 I-0.0849 J0.2049
G3 X5.4931 Y1.7017 I-0.1584 J0.2331
G3 X5.5269 Y1.7426 I-0.1993 J0.1993
G3 X5.5483 Y1.7824 I-0.1834 J0.1246
G3 X5.5613 Y1.8257 I-0.2049 J0.0849
G3 X5.5663 Y1.8785 I-0.2769 J0.0528
G3 X5.5613 Y1.9313 I-0.2819 J0
G3 X5.5483 Y1.9746 I-0.2178 J-0.0415
G3 X5.5269 Y2.0144 I-0.2049 J-0.0849
G3 X5.4931 Y2.0553 I-0.2331 J-0.1584
G0 Z0.5
G0 X1.9281 Y5.2037
G1 Z-0.25 F30
G3 X1.9352 Y5.1898 I0.0476 J0.0155 F10
G3 X1.9462 Y5.1787 I0.0405 J0.0294
G3 X1.9602 Y5.1716 I0.0294 J0.0405
G3 X1.9756 Y5.1691 I0.0155 J0.0476
G3 X1.9911 Y5.1716 I0 J0.05
G3 X2.005 Y5.1787 I-0.0155 J0.0476
G3 X2.0161 Y5.1898 I-0.0294 J0.0405
G3 X2.0232 Y5.2037 I-0.0405 J0.0294
G3 X2.0256 Y5.2191 I-0.0476 J0.0155
G1 X2.0256 Y5.2191
G1 X2.0256 Y5.2191
G3 X2.0232 Y5.2346 I-0.05 J0
G3 X2.0161 Y5.2485 I-0.0476 J-0.0155
G3 X2.005 Y5.2596 I-0.0405 J-0.0294
G3 X1.9911 Y5.2667 I-0.0294 J-0.0405
G3 X1.9756 Y5.2691 I-0.0155 J-0.0476
G3 X1.9602 Y5.2667 I0 J-0.05
G3 X1.9462 Y5.2596 I0.0155 J-0.0476
G3 X1.9352 Y5.2485 I0.0294 J-0.0405
G3 X1.9281 Y5.2346 I0.0405 J-0.0294
G3 X1.9256 Y5.2191 I0.0476 J-0.0155
G1 X1.9256 Y5.2191
G1 X1.9256 Y5.2191
G3 X1.9281 Y5.2037 I0.05 J0
G1 X1.833 Y5.1728 F10
G3 X1.8543 Y5.131 I0.1427 J0.0464 F10
G3 X1.8875 Y5.0978 I0.1214 J0.0882
G3 X1.9293 Y5.0765 I0.0882 J0.1214
G3 X1.9756 Y5.0691 I0.0464 J0.1427
G3 X2.022 Y5.0765 I0 J0.15
G3 X2.0638 Y5.0978 I-0.0464 J0.1427
G3 X2.097 Y5.131 I-0.0882 J0.1214
G3 X2.1183 Y5.1728 I-0.1214 J0.0882
G3 X2.1256 Y5.2191 I-0.1427 J0.0464
G1 X2.1256 Y5.2191
G1 X2.1256 Y5.2191
G3 X2.1183 Y5.2655 I-0.15 J0
G3 X2.097 Y5.3073 I-0.1427 J-0.0464
G3 X2.0638 Y5.3405 I-0.1214 J-0.0882
G3 X2.022 Y5.3618 I-0.0882 J-0.1214
G3 X1.9756 Y5.3691 I-0.0464 J-0.1427
G3 X1.9293 Y5.3618 I0 J-0.15
G3 X1.8875 Y5.3405 I0.0464 J-0.1427
G3 X1.8543 Y5.3073 I0.0882 J-0.1214
G3 X1.833 Y5.2655 I0.1214 J-0.0882
G3 X1.8256 Y5.2191 I0.1427 J-0.0464
G1 X1.8256 Y5.2191
G1 X1.8256 Y5.2191
G3 X1.833 Y5.1728 I0.15 J0
G1 X1.7379 Y5.1419 F10
G3 X1.7734 Y5.0722 I0.2378 J0.0773 F10
G3 X1.8287 Y5.0169 I0.2023 J0.1469
G3 X1.8984 Y4.9814 I0.1469 J0.2023
G3 X1.9756 Y4.9691 I0.0773 J0.2378
G3 X2.0529 Y4.9814 I0 J0.25
G3 X2.1226 Y5.0169 I-0.0773 J0.2378
G3 X2.1779 Y5.0722 I-0.1469 J0.2023
G3 X2.2134 Y5.1419 I-0.2023 J0.1469
G3 X2.2256 Y5.2191 I-0.2378 J0.0773
G1 X2.2256 Y5.2191
G1 X2.2256 Y5.2191
G3 X2.2134 Y5.2964 I-0.25 J0
G3 X2.1779 Y5.3661 I-0.2378 J-0.0773
G3 X2.1226 Y5.4214 I-0.2023 J-0.1469
G3 X2.0529 Y5.4569 I-0.1469 J-0.2023
G3 X1.9756 Y5.4691 I-0.0773 J-0.2378
G3 X1.8984 Y5.4569 I0 J-0.25
G3 X1.8287 Y5.4214 I0.0773 J-0.2378
G3 X1.7734 Y5.3661 I0.1469 J-0.2023
G3 X1.7379 Y5.2964 I0.2023 J-0.1469
G3 X1.7256 Y5.2191 I0.2378 J-0.0773
G1 X1.7256 Y5.2191
G1 X1.7256 Y5.2191
G3 X1.7379 Y5.1419 I0.25 J0
G0 Z0.5
G0 X16.5386 Y5.2191
G1 Z-0.25 F30
G3 X16.5371 Y5.2345 I-0.0819 J0 F10
G3 X16.5359 Y5.2387 I-0.0214 J-0.0041
G3 X16.5338 Y5.2426 I-0.0201 J-0.0083
G3 X16.5239 Y5.2545 I-0.0677 J-0.046
G3 X16.5121 Y5.2643 I-0.0579 J-0.0579
G3 X16.5082 Y5.2664 I-0.0122 J-0.018
G3 X16.5039 Y5.2677 I-0.0083 J-0.0201
G3 X16.4886 Y5.2691 I-0.0153 J-0.0804
G3 X16.4732 Y5.2677 I0 J-0.0819
G3 X16.469 Y5.2664 I0.0041 J-0.0214
G3 X16.4651 Y5.2643 I0.0083 J-0.0201
G3 X16.4532 Y5.2545 I0.046 J-0.0677
G3 X16.4434 Y5.2426 I0.0579 J-0.0579
G3 X16.4413 Y5.2387 I0.018 J-0.0122
G3 X16.44 Y5.2345 I0.0201 J-0.0083
G3 X16.4386 Y5.2191 I0.0804 J-0.0153
G3 X16.44 Y5.2038 I0.0819 J0
G3 X16.4413 Y5.1996 I0.0214 J0.0041
G3 X16.4434 Y5.1957 I0.0201 J0.0083
G3 X16.4532 Y5.1838 I0.0677 J0.046
G3 X16.4651 Y5.174 I0.0579 J0.0579
G3 X16.469 Y5.1719 I0.0122 J0.018
G3 X16.4732 Y5.1706 I0.0083 J0.0201
G3 X16.4886 Y5.1691 I0.0153 J0.0804
G3 X16.5039 Y5.1706 I0 J0.0819
G3 X16.5082 Y5.1719 I-0.0041 J0.0214
G3 X16.5121 Y5.174 I-0.0083 J0.0201
G3 X16.5239 Y5.1838 I-0.046 J0.0677
G3 X16.5338 Y5.1957 I-0.0579 J0.0579
G3 X16.5359 Y5.1996 I-0.018 J0.0122
G3 X16.5371 Y5.2038 I-0.0201 J0.0083
G3 X16.5386 Y5.2191 I-0.0804 J0.0153
G1 X16.6386 Y5.2191 F10
G3 X16.6354 Y5.2532 I-0.1819 J0 F10
G3 X16.6282 Y5.277 I-0.1196 J-0.0228
G3 X16.6165 Y5.2988 I-0.1125 J-0.0466
G3 X16.5946 Y5.3252 I-0.1504 J-0.1022
G3 X16.5683 Y5.347 I-0.1286 J-0.1286
G3 X16.5464 Y5.3588 I-0.0684 J-0.1007
G3 X16.5227 Y5.3659 I-0.0466 J-0.1125
G3 X16.4886 Y5.3691 I-0.0341 J-0.1786
G3 X16.4545 Y5.3659 I0 J-0.1819
G3 X16.4307 Y5.3588 I0.0228 J-0.1196
G3 X16.4089 Y5.347 I0.0466 J-0.1125
G3 X16.3825 Y5.3252 I0.1022 J-0.1504
G3 X16.3607 Y5.2988 I0.1286 J-0.1286
G3 X16.3489 Y5.277 I0.1007 J-0.0684
G3 X16.3418 Y5.2532 I0.1125 J-0.0466
G3 X16.3386 Y5.2191 I0.1786 J-0.0341
G3 X16.3418 Y5.1851 I0.1819 J0
G3 X16.3489 Y5.1613 I0.1196 J0.0228
G3 X16.3607 Y5.1395 I0.1125 J0.0466
G3 X16.3825 Y5.1131 I0.1504 J0.1022
G3 X16.4089 Y5.0913 I0.1286 J0.1286
G3 X16.4307 Y5.0795 I0.0684 J0.1007
G3 X16.4545 Y5.0724 I0.0466 J0.1125
G3 X16.4886 Y5.0691 I0.0341 J0.1786
G3 X16.5227 Y5.0724 I0 J0.1819
G3 X16.5464 Y5.0795 I-0.0228 J0.1196
G3 X16.5683 Y5.0913 I-0.0466 J0.1125
G3 X16.5946 Y5.1131 I-0.1022 J0.1504
G3 X16.6165 Y5.1395 I-0.1286 J0.1286
G3 X16.6282 Y5.1613 I-0.1007 J0.0684
G3 X16.6354 Y5.1851 I-0.1125 J0.0466
G3 X16.6386 Y5.2191 I-0.1786 J0.0341
G1 X16.7386 Y5.2191 F10
G3 X16.7336 Y5.272 I-0.2819 J0 F10
G3 X16.7206 Y5.3153 I-0.2178 J-0.0415
G3 X16.6992 Y5.3551 I-0.2049 J-0.0849
G3 X16.6654 Y5.3959 I-0.2331 J-0.1584
G3 X16.6245 Y5.4297 I-0.1993 J-0.1993
G3 X16.5847 Y5.4512 I-0.1246 J-0.1834
G3 X16.5414 Y5.4642 I-0.0849 J-0.2049
G3 X16.4886 Y5.4691 I-0.0528 J-0.2769
G3 X16.4358 Y5.4642 I0 J-0.2819
G3 X16.3925 Y5.4512 I0.0415 J-0.2178
G3 X16.3527 Y5.4297 I0.0849 J-0.2049
G3 X16.3118 Y5.3959 I0.1584 J-0.2331
G3 X16.278 Y5.3551 I0.1993 J-0.1993
G3 X16.2565 Y5.3153 I0.1834 J-0.1246
G3 X16.2436 Y5.272 I0.2049 J-0.0849
G3 X16.2386 Y5.2191 I0.2769 J-0.0528
G3 X16.2436 Y5.1663 I0.2819 J0
G3 X16.2565 Y5.123 I0.2178 J0.0415
G3 X16.278 Y5.0832 I0.2049 J0.0849
G3 X16.3118 Y5.0424 I0.2331 J0.1584
G3 X16.3527 Y5.0086 I0.1993 J0.1993
G3 X16.3925 Y4.9871 I0.1246 J0.1834
G3 X16.4358 Y4.9741 I0.0849 J0.2049
G3 X16.4886 Y4.9691 I0.0528 J0.2769
G3 X16.5414 Y4.9741 I0 J0.2819
G3 X16.5847 Y4.9871 I-0.0415 J0.2178
G3 X16.6245 Y5.0086 I-0.0849 J0.2049
G3 X16.6654 Y5.0424 I-0.1584 J0.2331
G3 X16.6992 Y5.0832 I-0.1993 J0.1993
G3 X16.7206 Y5.123 I-0.1834 J0.1246
G3 X16.7336 Y5.1663 I-0.2049 J0.0849
G3 X16.7386 Y5.2191 I-0.2769 J0.0528
G0 Z0.5
G0 X13.1833 Y1.9138
G1 Z-0.25 F30
G3 X13.1714 Y1.9237 I-0.0579 J-0.0579 F10
G3 X13.1675 Y1.9258 I-0.0122 J-0.018
G3 X13.1633 Y1.927 I-0.0083 J-0.0201
G3 X13.1479 Y1.9285 I-0.0153 J-0.0804
G3 X13.1326 Y1.927 I0 J-0.0819
G3 X13.1283 Y1.9258 I0.0041 J-0.0214
G3 X13.1244 Y1.9237 I0.0083 J-0.0201
G3 X13.1126 Y1.9138 I0.046 J-0.0677
G3 X13.1027 Y1.902 I0.0579 J-0.0579
G3 X13.1006 Y1.8981 I0.018 J-0.0122
G3 X13.0994 Y1.8938 I0.0201 J-0.0083
G3 X13.0979 Y1.8785 I0.0804 J-0.0153
G3 X13.0994 Y1.8631 I0.0819 J0
G3 X13.1006 Y1.8589 I0.0214 J0.0041
G3 X13.1027 Y1.855 I0.0201 J0.0083
G3 X13.1126 Y1.8431 I0.0677 J0.046
G3 X13.1244 Y1.8333 I0.0579 J0.0579
G3 X13.1283 Y1.8312 I0.0122 J0.018
G3 X13.1326 Y1.8299 I0.0083 J0.0201
G3 X13.1479 Y1.8285 I0.0153 J0.0804
G3 X13.1633 Y1.8299 I0 J0.0819
G3 X13.1675 Y1.8312 I-0.0041 J0.0214
G3 X13.1714 Y1.8333 I-0.0083 J0.0201
G3 X13.1833 Y1.8431 I-0.046 J0.0677
G3 X13.1931 Y1.855 I-0.0579 J0.0579
G3 X13.1952 Y1.8589 I-0.018 J0.0122
G3 X13.1965 Y1.8631 I-0.0201 J0.0083
G3 X13.1979 Y1.8785 I-0.0804 J0.0153
G3 X13.1965 Y1.8938 I-0.0819 J0
G3 X13.1952 Y1.8981 I-0.0214 J-0.0041
G3 X13.1931 Y1.902 I-0.0201 J-0.0083
G3 X13.1833 Y1.9138 I-0.0677 J-0.046
G1 X13.254 Y1.9846 F10
G3 X13.2276 Y2.0064 I-0.1286 J-0.1286 F10
G3 X13.2058 Y2.0182 I-0.0684 J-0.1007
G3 X13.182 Y2.0253 I-0.0466 J-0.1125
G3 X13.1479 Y2.0285 I-0.0341 J-0.1786
G3 X13.1138 Y2.0253 I0 J-0.1819
G3 X13.0901 Y2.0182 I0.0228 J-0.1196
G3 X13.0682 Y2.0064 I0.0466 J-0.1125
G3 X13.0418 Y1.9846 I0.1022 J-0.1504
G3 X13.02 Y1.9582 I0.1286 J-0.1286
G3 X13.0082 Y1.9363 I0.1007 J-0.0684
G3 X13.0011 Y1.9126 I0.1125 J-0.0466
G3 X12.9979 Y1.8785 I0.1786 J-0.0341
G3 X13.0011 Y1.8444 I0.1819 J0
G3 X13.0082 Y1.8206 I0.1196 J0.0228
G3 X13.02 Y1.7988 I0.1125 J0.0466
G3 X13.0418 Y1.7724 I0.1504 J0.1022
G3 X13.0682 Y1.7506 I0.1286 J0.1286
G3 X13.0901 Y1.7388 I0.0684 J0.1007
G3 X13.1138 Y1.7317 I0.0466 J0.1125
G3 X13.1479 Y1.7285 I0.0341 J0.1786
G3 X13.182 Y1.7317 I0 J0.1819
G3 X13.2058 Y1.7388 I-0.0228 J0.1196
G3 X13.2276 Y1.7506 I-0.0466 J0.1125
G3 X13.254 Y1.7724 I-0.1022 J0.1504
G3 X13.2758 Y1.7988 I-0.1286 J0.1286
G3 X13.2876 Y1.8206 I-0.1007 J0.0684
G3 X13.2947 Y1.8444 I-0.1125 J0.0466
G3 X13.2979 Y1.8785 I-0.1786 J0.0341
G3 X13.2947 Y1.9126 I-0.1819 J0
G3 X13.2876 Y1.9363 I-0.1196 J-0.0228
G3 X13.2758 Y1.9582 I-0.1125 J-0.0466
G3 X13.254 Y1.9846 I-0.1504 J-0.1022
G1 X13.3247 Y2.0553 F10
G3 X13.2838 Y2.0891 I-0.1993 J-0.1993 F10
G3 X13.244 Y2.1105 I-0.1246 J-0.1834
G3 X13.2007 Y2.1235 I-0.0849 J-0.2049
G3 X13.1479 Y2.1285 I-0.0528 J-0.2769
G3 X13.0951 Y2.1235 I0 J-0.2819
G3 X13.0518 Y2.1105 I0.0415 J-0.2178
G3 X13.012 Y2.0891 I0.0849 J-0.2049
G3 X12.9711 Y2.0553 I0.1584 J-0.2331
G3 X12.9373 Y2.0144 I0.1993 J-0.1993
G3 X12.9159 Y1.9746 I0.1834 J-0.1246
G3 X12.9029 Y1.9313 I0.2049 J-0.0849
G3 X12.8979 Y1.8785 I0.2769 J-0.0528
G3 X12.9029 Y1.8257 I0.2819 J0
G3 X12.9159 Y1.7824 I0.2178 J0.0415
G3 X12.9373 Y1.7426 I0.2049 J0.0849
G3 X12.9711 Y1.7017 I0.2331 J0.1584
G3 X13.012 Y1.6679 I0.1993 J0.1993
G3 X13.0518 Y1.6464 I0.1246 J0.1834
G3 X13.0951 Y1.6335 I0.0849 J0.2049
G3 X13.1479 Y1.6285 I0.0528 J0.2769
G3 X13.2007 Y1.6335 I0 J0.2819
G3 X13.244 Y1.6464 I-0.0415 J0.2178
G3 X13.2838 Y1.6679 I-0.0849 J0.2049
G3 X13.3247 Y1.7017 I-0.1584 J0.2331
G3 X13.3585 Y1.7426 I-0.1993 J0.1993
G3 X13.38 Y1.7824 I-0.1834 J0.1246
G3 X13.3929 Y1.8257 I-0.2049 J0.0849
G3 X13.3979 Y1.8785 I-0.2769 J0.0528
G3 X13.3929 Y1.9313 I-0.2819 J0
G3 X13.38 Y1.9746 I-0.2178 J-0.0415
G3 X13.3585 Y2.0144 I-0.2049 J-0.0849
G3 X13.3247 Y2.0553 I-0.2331 J-0.1584
G0 Z0.5
G0 X5.3516 Y1.9138
G1 Z-0.25 F30
G3 X5.3398 Y1.9237 I-0.0579 J-0.0579 F10
G3 X5.3359 Y1.9258 I-0.0122 J-0.018
G3 X5.3316 Y1.927 I-0.0083 J-0.0201
G3 X5.3163 Y1.9285 I-0.0153 J-0.0804
G3 X5.301 Y1.927 I0 J-0.0819
G3 X5.2967 Y1.9258 I0.0041 J-0.0214
G3 X5.2928 Y1.9237 I0.0083 J-0.0201
G3 X5.2809 Y1.9138 I0.046 J-0.0677
G3 X5.2711 Y1.902 I0.0579 J-0.0579
G3 X5.269 Y1.8981 I0.018 J-0.0122
G3 X5.2677 Y1.8938 I0.0201 J-0.0083
G3 X5.2663 Y1.8785 I0.0804 J-0.0153
G3 X5.2677 Y1.8631 I0.0819 J0
G3 X5.269 Y1.8589 I0.0214 J0.0041
G3 X5.2711 Y1.855 I0.0201 J0.0083
G3 X5.2809 Y1.8431 I0.0677 J0.046
G3 X5.2928 Y1.8333 I0.0579 J0.0579
G3 X5.2967 Y1.8312 I0.0122 J0.018
G3 X5.301 Y1.8299 I0.0083 J0.0201
G3 X5.3163 Y1.8285 I0.0153 J0.0804
G3 X5.3316 Y1.8299 I0 J0.0819
G3 X5.3359 Y1.8312 I-0.0041 J0.0214
G3 X5.3398 Y1.8333 I-0.0083 J0.0201
G3 X5.3516 Y1.8431 I-0.046 J0.0677
G3 X5.3615 Y1.855 I-0.0579 J0.0579
G3 X5.3636 Y1.8589 I-0.018 J0.0122
G3 X5.3648 Y1.8631 I-0.0201 J0.0083
G3 X5.3663 Y1.8785 I-0.0804 J0.0153
G3 X5.3648 Y1.8938 I-0.0819 J0
G3 X5.3636 Y1.8981 I-0.0214 J-0.0041
G3 X5.3615 Y1.902 I-0.0201 J-0.0083
G3 X5.3516 Y1.9138 I-0.0677 J-0.046
G1 X5.4224 Y1.9846 F10
G3 X5.396 Y2.0064 I-0.1286 J-0.1286 F10
G3 X5.3741 Y2.0182 I-0.0684 J-0.1007
G3 X5.3504 Y2.0253 I-0.0466 J-0.1125
G3 X5.3163 Y2.0285 I-0.0341 J-0.1786
G3 X5.2822 Y2.0253 I0 J-0.1819
G3 X5.2584 Y2.0182 I0.0228 J-0.1196
G3 X5.2366 Y2.0064 I0.0466 J-0.1125
G3 X5.2102 Y1.9846 I0.1022 J-0.1504
G3 X5.1884 Y1.9582 I0.1286 J-0.1286
G3 X5.1766 Y1.9363 I0.1007 J-0.0684
G3 X5.1695 Y1.9126 I0.1125 J-0.0466
G3 X5.1663 Y1.8785 I0.1786 J-0.0341
G3 X5.1695 Y1.8444 I0.1819 J0
G3 X5.1766 Y1.8206 I0.1196 J0.0228
G3 X5.1884 Y1.7988 I0.1125 J0.0466
G3 X5.2102 Y1.7724 I0.1504 J0.1022
G3 X5.2366 Y1.7506 I0.1286 J0.1286
G3 X5.2584 Y1.7388 I0.0684 J0.1007
G3 X5.2822 Y1.7317 I0.0466 J0.1125
G3 X5.3163 Y1.7285 I0.0341 J0.1786
G3 X5.3504 Y1.7317 I0 J0.1819
G3 X5.3741 Y1.7388 I-0.0228 J0.1196
G3 X5.396 Y1.7506 I-0.0466 J0.1125
G3 X5.4224 Y1.7724 I-0.1022 J0.1504
G3 X5.4442 Y1.7988 I-0.1286 J0.1286
G3 X5.456 Y1.8206 I-0.1007 J0.0684
G3 X5.4631 Y1.8444 I-0.1125 J0.0466
G3 X5.4663 Y1.8785 I-0.1786 J0.0341
G3 X5.4631 Y1.9126 I-0.1819 J0
G3 X5.456 Y1.9363 I-0.1196 J-0.0228
G3 X5.4442 Y1.9582 I-0.1125 J-0.0466
G3 X5.4224 Y1.9846 I-0.1504 J-0.1022
G1 X5.4931 Y2.0553 F10
G3 X5.4522 Y2.0891 I-0.1993 J-0.1993 F10
G3 X5.4124 Y2.1105 I-0.1246 J-0.1834
G3 X5.3691 Y2.1235 I-0.0849 J-0.2049
G3 X5.3163 Y2.1285 I-0.0528 J-0.2769
G3 X5.2635 Y2.1235 I0 J-0.2819
G3 X5.2202 Y2.1105 I0.0415 J-0.2178
G3 X5.1804 Y2.0891 I0.0849 J-0.2049
G3 X5.1395 Y2.0553 I0.1584 J-0.2331
G3 X5.1057 Y2.0144 I0.1993 J-0.1993
G3 X5.0842 Y1.9746 I0.1834 J-0.1246
G3 X5.0713 Y1.9313 I0.2049 J-0.0849
G3 X5.0663 Y1.8785 I0.2769 J-0.0528
G3 X5.0713 Y1.8257 I0.2819 J0
G3 X5.0842 Y1.7824 I0.2178 J0.0415
G3 X5.1057 Y1.7426 I0.2049 J0.0849
G3 X5.1395 Y1.7017 I0.2331 J0.1584
G3 X5.1804 Y1.6679 I0.1993 J0.1993
G3 X5.2202 Y1.6464 I0.1246 J0.1834
G3 X5.2635 Y1.6335 I0.0849 J0.2049
G3 X5.3163 Y1.6285 I0.0528 J0.2769
G3 X5.3691 Y1.6335 I0 J0.2819
G3 X5.4124 Y1.6464 I-0.0415 J0.2178
G3 X5.4522 Y1.6679 I-0.0849 J0.2049
G3 X5.4931 Y1.7017 I-0.1584 J0.2331
G3 X5.5269 Y1.7426 I-0.1993 J0.1993
G3 X5.5483 Y1.7824 I-0.1834 J0.1246
G3 X5.5613 Y1.8257 I-0.2049 J0.0849
G3 X5.5663 Y1.8785 I-0.2769 J0.0528
G3 X5.5613 Y1.9313 I-0.2819 J0
G3 X5.5483 Y1.9746 I-0.2178 J-0.0415
G3 X5.5269 Y2.0144 I-0.2049 J-0.0849
G3 X5.4931 Y2.0553 I-0.2331 J-0.1584

(profile 3)
G0 Z0.5
G0 X10.4611 Y9.7538
G1 Z-0.1 F30
